; GCode generated by RepRap Java Host Software
; Created: 2010-05-06:10-11-30
G21 ;metric is good!
G90 ;absolute positioning
T0; select new extruder
M113; set extruder to use pot for PWM
G92 E0 ;zero the extruded length
G28; go home
G92 E0 ;zero the extruded length
G1 F5.0; feed for start of next move
G1 Z0.4125 F50.0 ;z move
G1 Z0.5875 ;z move
G1 Z1.0 F5.0 ;z move
G1 F1500.0; feed for start of next move
G1 X2.8 Y0.1 F3000.0 ;horizontal move
G1 X127.2 Y4.9 ;horizontal move
G1 X130.0 Y5.0 F1500.0 ;horizontal move
M109 S190.0 ;set temperature and wait
G1 F3000.0; feed for start of next move
G1 E1000.0; extruder dwell
G1 F1500.0; feed for start of next move
G1 F18000.0; feed for start of next move
G1 E960.0; extruder retraction
G1 F1500.0; feed for start of next move
G28; go home
G92 E0 ;zero the extruded length
G92 E0 ;zero the extruded length
;#!LAYER: 1/66
M107 ;cooler off
G4 P20 ;delay
G1 F5.0; feed for start of next move
G1 Z0.05 F30.4 ;z move
G1 Z0.2 F5.0 ;z move
G1 F1500.0; feed for start of next move
G1 X1.3 Y2.5 F3000.0 ;horizontal move
G1 X16.7 Y30.5 ;horizontal move
G1 X18.0 Y33.0 F1500.0 ;horizontal move
G1 F18000.0; feed for start of next move
G1 E40.0; extruder dwell
G1 F1500.0; feed for start of next move
G1 F3000.0; feed for start of next move
G1 E80.0; extruder dwell
G1 F1500.0; feed for start of next move
G1 F3000.0; feed for start of next move
G1 E90.0; extruder dwell
G1 F1500.0; feed for start of next move
G1 X17.4 Y35.8 E92.9 F3000.0 ;horizontal move
G1 X16.7 Y39.6 E96.7 ;horizontal move
G1 X16.0 Y43.0 E100.2 F764.6 ;horizontal move
G1 Y39.5 E103.7 F3000.0 ;horizontal move
G1 Y33.8 E109.4 ;horizontal move
G1 Y31.0 E112.2 F1500.0 ;horizontal move
G1 X18.8 E115.0 F3000.0 ;horizontal move
G1 X35.2 E131.4 ;horizontal move
G1 X38.0 E134.2 F1500.0 ;horizontal move
G1 F18000.0; feed for start of next move
G1 E94.2; extruder retraction
G1 F1500.0; feed for start of next move
G1 X36.7 Y33.5 F3000.0 ;horizontal move
G1 X30.3 Y46.2 ;horizontal move
G1 X29.0 Y48.7 F1500.0 ;horizontal move
G1 F18000.0; feed for start of next move
G1 E134.2; extruder dwell
G1 F1500.0; feed for start of next move
G1 F3000.0; feed for start of next move
G1 E139.2; extruder dwell
G1 F1500.0; feed for start of next move
G1 F3000.0; feed for start of next move
G1 E144.2; extruder dwell
G1 F1500.0; feed for start of next move
G1 X29.5 Y48.9 E144.7 F1881.0 ;horizontal move
G1 X30.1 Y48.5 E145.5 F2327.1 ;horizontal move
G1 X30.9 Y48.3 E146.3 F2683.4 ;horizontal move
G1 X31.1 E146.5 F2577.2 ;horizontal move
G1 X31.3 Y48.4 E146.7 F2700.0 ;horizontal move
G1 X32.0 Y48.5 E147.4 ;horizontal move
G1 X32.2 Y48.6 E147.6 F2603.5 ;horizontal move
G1 X32.3 Y48.7 E147.8 F2700.0 ;horizontal move
G1 X32.9 Y49.2 E148.6 ;horizontal move
G1 X33.1 Y49.3 E148.8 F2589.6 ;horizontal move
G1 X33.2 Y49.5 E149.0 F2700.0 ;horizontal move
G1 X33.5 Y50.2 E149.8 ;horizontal move
G1 Y50.3 E149.9 F2638.4 ;horizontal move
G1 X33.6 Y50.4 E150.0 F2700.0 ;horizontal move
G1 Y50.9 E150.5 ;horizontal move
G1 X33.7 Y51.1 E150.7 F2619.4 ;horizontal move
G1 X33.6 Y51.3 E151.0 F2700.0 ;horizontal move
G1 X33.5 Y51.7 E151.4 ;horizontal move
G1 Y51.9 E151.6 F2617.4 ;horizontal move
G1 X33.4 Y52.1 E151.8 F2700.0 ;horizontal move
G1 X32.8 Y52.8 E152.7 ;horizontal move
G1 X32.7 Y53.0 E152.9 F2579.7 ;horizontal move
G1 X32.5 Y53.2 E153.2 F2700.0 ;horizontal move
G1 X32.0 Y53.4 E153.8 ;horizontal move
G1 X31.9 Y53.5 E153.9 F2633.8 ;horizontal move
G1 X31.7 E154.1 F2700.0 ;horizontal move
G1 X31.1 Y53.7 E154.7 ;horizontal move
G1 X30.9 E154.9 F2613.2 ;horizontal move
G1 X30.7 E155.1 F2700.0 ;horizontal move
G1 X30.3 Y53.6 E155.5 ;horizontal move
G1 X30.0 Y53.5 E155.9 F2554.6 ;horizontal move
G1 X29.8 Y53.3 E156.1 F2700.0 ;horizontal move
G1 X29.1 Y52.8 E157.0 ;horizontal move
G1 X28.9 Y52.6 E157.3 F2587.6 ;horizontal move
G1 X28.8 Y52.4 E157.5 F2700.0 ;horizontal move
G1 X28.5 Y51.7 E158.3 ;horizontal move
G1 X28.4 Y51.6 E158.4 F2650.9 ;horizontal move
G1 Y51.5 E158.5 F2700.0 ;horizontal move
G1 Y51.1 E158.9 ;horizontal move
G1 X28.3 Y50.8 E159.2 F2557.7 ;horizontal move
G1 X28.4 Y50.7 E159.4 F2619.5 ;horizontal move
G1 X28.7 Y49.8 E160.3 F2141.3 ;horizontal move
G1 X29.5 Y48.9 E161.5 F1314.1 ;horizontal move
G1 X29.1 Y48.7 E162.0 F1622.5 ;horizontal move
G1 F18000.0; feed for start of next move
G1 E122.0; extruder retraction
G1 F1500.0; feed for start of next move
G1 X29.0 F3000.0 ;horizontal move
G1 F1500.0; feed for start of next move
G1 X29.6 Y51.4 F3000.0 ;horizontal move
G1 X30.1 Y53.6 ;horizontal move
G1 X30.7 Y56.3 F1500.0 ;horizontal move
G1 F18000.0; feed for start of next move
G1 E162.0; extruder dwell
G1 F1500.0; feed for start of next move
G1 F3000.0; feed for start of next move
G1 E167.0; extruder dwell
G1 F1500.0; feed for start of next move
G1 F3000.0; feed for start of next move
G1 E172.0; extruder dwell
G1 F1500.0; feed for start of next move
G1 X32.2 Y57.8 E174.1 F2700.0 ;horizontal move
G1 X38.5 Y64.1 E183.0 ;horizontal move
G1 X39.5 Y65.1 E184.4 F1941.3 ;horizontal move
G1 X40.0 E184.9 F1617.6 ;horizontal move
G1 X40.6 Y65.6 E185.7 F939.4 ;horizontal move
G1 X37.9 E188.4 F2700.0 ;horizontal move
G1 X23.6 E202.7 ;horizontal move
G1 X21.5 E204.8 F1502.5 ;horizontal move
G1 Y63.5 E206.9 F2700.0 ;horizontal move
G1 X21.4 Y38.5 E231.9 ;horizontal move
G1 Y36.4 E234.0 F1496.1 ;horizontal move
G1 X23.5 E236.1 F2700.0 ;horizontal move
G1 X38.5 Y36.5 E251.1 ;horizontal move
G1 X40.6 E253.2 F1503.8 ;horizontal move
G1 Y38.6 E255.3 F2700.0 ;horizontal move
G1 Y62.9 E279.6 ;horizontal move
G1 Y65.6 E282.3 F986.6 ;horizontal move
G1 X38.6 Y63.8 E285.0 F2700.0 ;horizontal move
G1 X32.3 Y57.8 E293.7 ;horizontal move
G1 F18000.0; feed for start of next move
G1 E253.7; extruder retraction
G1 F1500.0; feed for start of next move
G1 X30.7 Y56.3 F3000.0 ;horizontal move
G1 F1500.0; feed for start of next move
G1 X32.7 Y58.2 F3000.0 ;horizontal move
G1 X38.0 Y63.2 ;horizontal move
G1 X40.0 Y65.1 F1500.0 ;horizontal move
G1 F18000.0; feed for start of next move
G1 E293.7; extruder dwell
G1 F1500.0; feed for start of next move
G1 F3000.0; feed for start of next move
G1 E298.7; extruder dwell
G1 F1500.0; feed for start of next move
G1 F3000.0; feed for start of next move
G1 E303.7; extruder dwell
G1 F1500.0; feed for start of next move
G1 X40.1 Y64.9 E303.9 F1644.8 ;horizontal move
G1 X38.2 Y63.1 E306.5 F3000.0 ;horizontal move
G1 X23.8 Y48.5 E327.0 ;horizontal move
G1 X21.9 Y46.6 E329.7 F1593.7 ;horizontal move
G1 Y45.9 E330.4 F977.6 ;horizontal move
G1 X24.3 Y48.2 E333.7 F3000.0 ;horizontal move
G1 X25.6 Y49.5 E335.6 ;horizontal move
G1 X28.0 Y51.8 E338.9 F901.9 ;horizontal move
G1 X27.9 Y51.1 E339.6 F1645.4 ;horizontal move
G1 X26.1 Y49.2 E342.2 F3000.0 ;horizontal move
G1 X23.7 Y46.8 E345.6 ;horizontal move
G1 X21.9 Y44.9 E348.2 F1636.6 ;horizontal move
G1 Y44.2 E348.9 F974.9 ;horizontal move
G1 X24.3 Y46.5 E352.3 F3000.0 ;horizontal move
G1 X25.8 Y47.9 E354.3 ;horizontal move
G1 X28.0 Y50.2 E357.5 F1171.2 ;horizontal move
G1 X28.2 Y49.6 E358.1 F1654.7 ;horizontal move
G1 X26.4 Y47.8 E360.7 F3000.0 ;horizontal move
G1 X23.7 Y45.1 E364.5 ;horizontal move
G1 X21.9 Y43.2 E367.1 F1636.4 ;horizontal move
G1 Y42.5 E367.8 F974.5 ;horizontal move
G1 X24.3 Y44.8 E371.1 F3000.0 ;horizontal move
G1 X26.6 Y47.0 E374.3 ;horizontal move
G1 X28.6 Y49.0 E377.2 F1500.0 ;horizontal move
G1 F18000.0; feed for start of next move
G1 E337.2; extruder retraction
G1 F1500.0; feed for start of next move
G1 X28.8 Y48.9 F1688.2 ;horizontal move
G1 X29.0 Y48.7 F1500.0 ;horizontal move
G1 F18000.0; feed for start of next move
G1 E377.2; extruder dwell
G1 F1500.0; feed for start of next move
G1 F3000.0; feed for start of next move
G1 E382.2; extruder dwell
G1 F1500.0; feed for start of next move
G1 F3000.0; feed for start of next move
G1 E387.2; extruder dwell
G1 F1500.0; feed for start of next move
G1 X27.0 Y46.7 E390.0 F3000.0 ;horizontal move
G1 X23.8 Y43.4 E394.6 ;horizontal move
G1 X21.9 Y41.5 E397.3 F1636.0 ;horizontal move
G1 Y40.8 E398.0 F973.9 ;horizontal move
G1 X24.3 Y43.2 E401.4 F3000.0 ;horizontal move
G1 X27.5 Y46.3 E405.8 ;horizontal move
G1 X29.5 Y48.3 E408.6 F1500.0 ;horizontal move
G1 F18000.0; feed for start of next move
G1 E368.6; extruder retraction
G1 F1500.0; feed for start of next move
G1 X29.8 Y48.2 F1747.9 ;horizontal move
G1 X30.1 Y48.0 F1500.0 ;horizontal move
G1 F18000.0; feed for start of next move
G1 E408.6; extruder dwell
G1 F1500.0; feed for start of next move
G1 F3000.0; feed for start of next move
G1 E413.6; extruder dwell
G1 F1500.0; feed for start of next move
G1 F3000.0; feed for start of next move
G1 E418.6; extruder dwell
G1 F1500.0; feed for start of next move
G1 X28.1 Y46.0 E421.5 F3000.0 ;horizontal move
G1 X23.8 Y41.7 E427.6 ;horizontal move
G1 X21.9 Y39.8 E430.2 F1593.2 ;horizontal move
G1 Y39.1 E430.9 F976.9 ;horizontal move
G1 X24.3 Y41.5 E434.3 F3000.0 ;horizontal move
G1 X29.0 Y46.0 E440.8 ;horizontal move
G1 X30.8 Y47.8 E443.4 F1643.3 ;horizontal move
G1 X31.6 Y47.9 E444.2 F897.9 ;horizontal move
G1 X29.2 Y45.5 E447.6 F3000.0 ;horizontal move
G1 X23.8 Y40.0 E455.3 ;horizontal move
G1 X21.9 Y38.1 E458.0 F1634.5 ;horizontal move
G1 Y37.4 E458.7 F971.4 ;horizontal move
G1 X24.3 Y39.7 E462.0 F3000.0 ;horizontal move
G1 X37.7 Y53.1 E481.0 ;horizontal move
G1 X40.1 Y55.4 E484.3 F971.4 ;horizontal move
G1 Y54.7 E485.0 F1634.5 ;horizontal move
G1 X38.2 Y52.8 E487.7 F3000.0 ;horizontal move
G1 X24.7 Y39.3 E506.8 ;horizontal move
G1 X22.4 Y36.9 E510.1 F971.5 ;horizontal move
G1 X23.1 E510.8 F1634.5 ;horizontal move
G1 X25.0 Y38.8 E513.5 F3000.0 ;horizontal move
G1 X37.7 Y51.4 E531.4 ;horizontal move
G1 X40.1 Y53.8 E534.8 F971.6 ;horizontal move
G1 Y53.0 E535.6 F1634.6 ;horizontal move
G1 X38.2 Y51.2 E538.2 F3000.0 ;horizontal move
G1 X26.5 Y39.3 E554.9 ;horizontal move
G1 X24.1 Y36.9 E558.3 F972.7 ;horizontal move
G1 X24.8 E559.0 F1590.6 ;horizontal move
G1 X26.7 Y38.8 E561.6 F3000.0 ;horizontal move
G1 X37.7 Y49.7 E577.1 ;horizontal move
G1 X40.1 Y52.0 E580.5 F972.8 ;horizontal move
G1 Y51.4 E581.1 F1590.7 ;horizontal move
G1 X38.2 Y49.4 E583.8 F3000.0 ;horizontal move
G1 X28.2 Y39.3 E598.0 ;horizontal move
G1 X25.8 Y36.9 E601.4 F973.0 ;horizontal move
G1 X26.5 E602.1 F1635.5 ;horizontal move
G1 X28.4 Y38.8 E604.8 F3000.0 ;horizontal move
G1 X37.7 Y48.0 E617.9 ;horizontal move
G1 X40.1 Y50.3 E621.2 F972.0 ;horizontal move
G1 Y49.6 E621.9 F1634.9 ;horizontal move
G1 X38.2 Y47.7 E624.6 F3000.0 ;horizontal move
G1 X29.8 Y39.3 E636.5 ;horizontal move
G1 X27.5 Y36.9 E639.8 F972.2 ;horizontal move
G1 X28.2 E640.5 F1635.0 ;horizontal move
G1 X30.1 Y38.8 E643.2 F3000.0 ;horizontal move
G1 X37.7 Y46.3 E653.9 ;horizontal move
G1 X40.1 Y48.7 E657.3 F972.4 ;horizontal move
G1 Y47.9 E658.1 F1635.1 ;horizontal move
G1 X38.2 Y46.1 E660.7 F3000.0 ;horizontal move
G1 X31.5 Y39.3 E670.2 ;horizontal move
G1 X29.2 Y36.9 E673.5 F972.6 ;horizontal move
G1 X29.9 E674.2 F1635.2 ;horizontal move
G1 X31.8 Y38.7 E676.9 F3000.0 ;horizontal move
G1 X37.7 Y44.6 E685.2 ;horizontal move
G1 X40.1 Y46.9 E688.5 F974.4 ;horizontal move
G1 Y46.3 E689.1 F1591.7 ;horizontal move
G1 X38.2 Y44.3 E691.9 F3000.0 ;horizontal move
G1 X33.3 Y39.3 E698.9 ;horizontal move
G1 X30.9 Y36.9 E702.3 F932.2 ;horizontal move
G1 X31.6 Y37.0 E703.0 F1613.4 ;horizontal move
G1 X33.5 Y38.8 E705.6 F3000.0 ;horizontal move
G1 X37.7 Y42.9 E711.5 ;horizontal move
G1 X40.1 Y45.2 E714.8 F975.4 ;horizontal move
G1 Y44.5 E715.5 F1636.9 ;horizontal move
G1 X38.2 Y42.6 E718.2 F3000.0 ;horizontal move
G1 X35.0 Y39.4 E722.7 ;horizontal move
G1 X32.6 Y37.0 E726.1 F973.9 ;horizontal move
G1 X33.4 E726.9 F1636.0 ;horizontal move
G1 X35.2 Y38.8 E729.5 F3000.0 ;horizontal move
G1 X37.7 Y41.2 E732.9 ;horizontal move
G1 X40.1 Y43.6 E736.3 F974.5 ;horizontal move
G1 Y42.8 E737.1 F1636.3 ;horizontal move
G1 X38.2 Y41.0 E739.7 F3000.0 ;horizontal move
G1 X36.7 Y39.4 E741.9 ;horizontal move
G1 X34.3 Y37.0 E745.3 F975.2 ;horizontal move
G1 X35.0 E746.0 F1636.7 ;horizontal move
G1 X36.9 Y38.8 E748.6 F3000.0 ;horizontal move
G1 X37.7 Y39.5 E749.7 ;horizontal move
G1 X40.1 Y41.9 E753.1 F976.1 ;horizontal move
G1 Y41.2 E753.8 F1637.3 ;horizontal move
G1 X38.3 Y39.3 E756.4 F2966.2 ;horizontal move
G1 X36.1 Y37.0 E759.6 F981.4 ;horizontal move
G1 X36.7 E760.2 F1596.0 ;horizontal move
G1 X38.2 Y38.3 E762.2 F2703.6 ;horizontal move
G1 X40.1 Y40.1 E764.8 F984.5 ;horizontal move
G1 Y39.5 E765.4 F1597.9 ;horizontal move
G1 X39.1 Y38.5 E766.8 F2427.5 ;horizontal move
G1 X37.7 Y37.0 E768.9 F989.7 ;horizontal move
G1 X38.5 E769.7 F1645.4 ;horizontal move
G1 X39.0 Y37.5 E770.4 F2119.8 ;horizontal move
G1 X40.1 Y38.5 E771.9 F990.4 ;horizontal move
G1 Y37.7 E772.7 F1645.9 ;horizontal move
G1 X39.8 Y37.4 E773.1 F1925.0 ;horizontal move
G1 X39.4 Y37.0 E773.6 F1500.0 ;horizontal move
G1 F18000.0; feed for start of next move
G1 E733.6; extruder retraction
G1 F1500.0; feed for start of next move
G1 X38.3 Y39.6 F3000.0 ;horizontal move
G1 X35.1 Y47.6 ;horizontal move
G1 X34.0 Y50.2 F1500.0 ;horizontal move
G1 F18000.0; feed for start of next move
G1 E773.6; extruder dwell
G1 F1500.0; feed for start of next move
G1 F3000.0; feed for start of next move
G1 E778.6; extruder dwell
G1 F1500.0; feed for start of next move
G1 F3000.0; feed for start of next move
G1 E783.6; extruder dwell
G1 F1500.0; feed for start of next move
G1 X36.0 Y52.2 E786.5 F3000.0 ;horizontal move
G1 X38.2 Y54.5 E789.7 ;horizontal move
G1 X40.1 Y56.4 E792.3 F1635.1 ;horizontal move
G1 Y57.1 E793.0 F972.4 ;horizontal move
G1 X37.7 Y54.8 E796.4 F3000.0 ;horizontal move
G1 X36.1 Y53.2 E798.6 ;horizontal move
G1 X34.1 Y51.2 E801.5 F1500.0 ;horizontal move
G1 F18000.0; feed for start of next move
G1 E761.5; extruder retraction
G1 F1500.0; feed for start of next move
G1 Y51.6 F1760.3 ;horizontal move
G1 X34.0 Y51.9 F1500.0 ;horizontal move
G1 F18000.0; feed for start of next move
G1 E801.5; extruder dwell
G1 F1500.0; feed for start of next move
G1 F3000.0; feed for start of next move
G1 E806.5; extruder dwell
G1 F1500.0; feed for start of next move
G1 F3000.0; feed for start of next move
G1 E811.5; extruder dwell
G1 F1500.0; feed for start of next move
G1 X35.9 Y53.9 E814.2 F3000.0 ;horizontal move
G1 X38.2 Y56.2 E817.5 ;horizontal move
G1 X40.1 Y58.1 E820.2 F1590.3 ;horizontal move
G1 Y58.8 E820.9 F972.2 ;horizontal move
G1 X37.7 Y56.4 E824.3 F3000.0 ;horizontal move
G1 X35.7 Y54.5 E827.0 ;horizontal move
G1 X33.7 Y52.5 E829.8 F1500.0 ;horizontal move
G1 F18000.0; feed for start of next move
G1 E789.8; extruder retraction
G1 F1500.0; feed for start of next move
G1 X33.6 Y52.8 F1717.5 ;horizontal move
G1 X33.4 Y53.0 F1500.0 ;horizontal move
G1 F18000.0; feed for start of next move
G1 E829.8; extruder dwell
G1 F1500.0; feed for start of next move
G1 F3000.0; feed for start of next move
G1 E834.8; extruder dwell
G1 F1500.0; feed for start of next move
G1 F3000.0; feed for start of next move
G1 E839.8; extruder dwell
G1 F1500.0; feed for start of next move
G1 X35.4 Y55.0 E842.7 F3000.0 ;horizontal move
G1 X38.2 Y57.9 E846.7 ;horizontal move
G1 X40.1 Y59.8 E849.4 F1633.5 ;horizontal move
G1 Y60.5 E850.1 F969.7 ;horizontal move
G1 X37.7 Y58.2 E853.4 F3000.0 ;horizontal move
G1 X35.0 Y55.4 E857.3 ;horizontal move
G1 X33.0 Y53.5 E860.1 F1500.0 ;horizontal move
G1 F18000.0; feed for start of next move
G1 E820.1; extruder retraction
G1 F1500.0; feed for start of next move
G1 X32.8 Y53.7 F1717.5 ;horizontal move
G1 X32.5 Y53.8 F1500.0 ;horizontal move
G1 F18000.0; feed for start of next move
G1 E860.1; extruder dwell
G1 F1500.0; feed for start of next move
G1 F3000.0; feed for start of next move
G1 E865.1; extruder dwell
G1 F1500.0; feed for start of next move
G1 F3000.0; feed for start of next move
G1 E870.1; extruder dwell
G1 F1500.0; feed for start of next move
G1 X34.4 Y55.8 E872.8 F3000.0 ;horizontal move
G1 X38.2 Y59.6 E878.2 ;horizontal move
G1 X40.1 Y61.5 E880.9 F1635.8 ;horizontal move
G1 Y62.2 E881.6 F973.5 ;horizontal move
G1 X37.7 Y59.9 E884.9 F3000.0 ;horizontal move
G1 X33.6 Y55.9 E890.6 ;horizontal move
G1 X31.7 Y54.0 E893.3 F1630.1 ;horizontal move
G1 X31.1 Y54.1 E893.9 F1090.2 ;horizontal move
G1 X33.4 Y56.4 E897.2 F3000.0 ;horizontal move
G1 X38.2 Y61.3 E904.0 ;horizontal move
G1 X40.1 Y63.2 E906.7 F1589.8 ;horizontal move
G1 Y63.9 E907.4 F971.3 ;horizontal move
G1 X37.7 Y61.5 E910.8 F3000.0 ;horizontal move
G1 X32.1 Y56.0 E918.7 ;horizontal move
G1 X30.1 Y54.0 E921.5 F1500.0 ;horizontal move
G1 F18000.0; feed for start of next move
G1 E881.5; extruder retraction
G1 F1500.0; feed for start of next move
G1 X30.4 Y55.2 F2258.8 ;horizontal move
G1 X30.7 Y56.3 F1500.0 ;horizontal move
G1 F18000.0; feed for start of next move
G1 E921.5; extruder dwell
G1 F1500.0; feed for start of next move
G1 F3000.0; feed for start of next move
G1 E926.5; extruder dwell
G1 F1500.0; feed for start of next move
G1 F3000.0; feed for start of next move
G1 E931.5; extruder dwell
G1 F1500.0; feed for start of next move
G1 X28.7 Y54.4 E934.3 F3000.0 ;horizontal move
G1 X24.3 Y49.9 E940.5 ;horizontal move
G1 X21.9 Y47.6 E943.9 F971.5 ;horizontal move
G1 Y48.3 E944.6 F1634.6 ;horizontal move
G1 X23.8 Y50.2 E947.3 F3000.0 ;horizontal move
G1 X36.2 Y62.7 E964.9 ;horizontal move
G1 X38.6 Y65.1 E968.3 F971.6 ;horizontal move
G1 X37.9 E969.0 F1634.6 ;horizontal move
G1 X36.0 Y63.2 E971.6 F3000.0 ;horizontal move
G1 X24.3 Y51.6 E988.1 ;horizontal move
G1 X21.9 Y49.3 E991.4 F971.7 ;horizontal move
G1 Y50.0 E992.1 F1634.7 ;horizontal move
G1 X23.8 Y51.9 E994.8 F3000.0 ;horizontal move
G1 X34.5 Y62.7 E1010.0 ;horizontal move
G1 X36.9 Y65.1 E1013.4 F971.8 ;horizontal move
G1 X36.2 E1014.1 F1634.7 ;horizontal move
G1 X34.3 Y63.2 E1016.8 F3000.0 ;horizontal move
G1 X24.3 Y53.4 E1030.8 ;horizontal move
G1 X21.9 Y51.0 E1034.2 F973.0 ;horizontal move
G1 Y51.7 E1034.9 F1590.9 ;horizontal move
G1 X23.8 Y53.6 E1037.6 F3000.0 ;horizontal move
G1 X32.8 Y62.7 E1050.4 ;horizontal move
G1 X35.2 Y65.1 E1053.8 F973.3 ;horizontal move
G1 X34.5 E1054.5 F1591.0 ;horizontal move
G1 X32.6 Y63.2 E1057.2 F3000.0 ;horizontal move
G1 X24.3 Y55.1 E1068.8 ;horizontal move
G1 X22.0 Y52.7 E1072.1 F973.5 ;horizontal move
G1 Y53.4 E1072.8 F1591.1 ;horizontal move
G1 X23.9 Y55.3 E1075.5 F3000.0 ;horizontal move
G1 X31.1 Y62.7 E1085.8 ;horizontal move
G1 X33.5 Y65.1 E1089.2 F973.8 ;horizontal move
G1 X32.8 E1089.9 F1635.9 ;horizontal move
G1 X30.9 Y63.2 E1092.6 F3000.0 ;horizontal move
G1 X24.3 Y56.8 E1101.8 ;horizontal move
G1 X22.0 Y54.4 E1105.1 F972.6 ;horizontal move
G1 Y55.1 E1105.8 F1635.2 ;horizontal move
G1 X23.8 Y57.0 E1108.4 F3000.0 ;horizontal move
G1 X29.4 Y62.7 E1116.4 ;horizontal move
G1 X31.8 Y65.1 E1119.8 F972.9 ;horizontal move
G1 X31.1 E1120.5 F1635.4 ;horizontal move
G1 X29.2 Y63.2 E1123.2 F3000.0 ;horizontal move
G1 X24.3 Y58.5 E1130.0 ;horizontal move
G1 X22.0 Y56.1 E1133.3 F973.2 ;horizontal move
G1 Y56.8 E1134.0 F1635.6 ;horizontal move
G1 X23.8 Y58.7 E1136.6 F3000.0 ;horizontal move
G1 X27.7 Y62.7 E1142.2 ;horizontal move
G1 X30.1 Y65.1 E1145.6 F975.5 ;horizontal move
G1 X29.4 E1146.3 F1592.4 ;horizontal move
G1 X27.5 Y63.2 E1149.0 F3000.0 ;horizontal move
G1 X24.4 Y60.2 E1153.3 ;horizontal move
G1 X22.0 Y57.8 E1156.7 F976.2 ;horizontal move
G1 Y58.5 E1157.4 F1592.8 ;horizontal move
G1 X23.8 Y60.4 E1160.0 F3000.0 ;horizontal move
G1 X26.0 Y62.7 E1163.2 ;horizontal move
G1 X28.4 Y65.1 E1166.6 F977.1 ;horizontal move
G1 X27.7 E1167.3 F1593.3 ;horizontal move
G1 X25.8 Y63.2 E1170.0 F3000.0 ;horizontal move
G1 X24.4 Y61.9 E1171.9 ;horizontal move
G1 X22.0 Y59.5 E1175.3 F978.2 ;horizontal move
G1 Y60.2 E1176.0 F1638.5 ;horizontal move
G1 X23.8 Y62.1 E1178.6 F3000.0 ;horizontal move
G1 X24.4 Y62.7 E1179.5 ;horizontal move
G1 X26.7 Y65.1 E1182.8 F976.3 ;horizontal move
G1 X26.0 E1183.5 F1637.4 ;horizontal move
G1 X24.2 Y63.4 E1186.0 F2922.3 ;horizontal move
G1 X22.0 Y61.2 E1189.1 F977.8 ;horizontal move
G1 Y61.9 E1189.8 F1638.3 ;horizontal move
G1 X23.2 Y63.3 E1191.6 F2668.0 ;horizontal move
G1 X25.0 Y65.1 E1194.2 F980.0 ;horizontal move
G1 X24.3 E1194.9 F1639.6 ;horizontal move
G1 X23.4 Y64.3 E1196.1 F2378.4 ;horizontal move
G1 X22.0 Y62.9 E1198.0 F991.3 ;horizontal move
G1 Y63.6 E1198.7 F1602.1 ;horizontal move
G1 X22.4 Y64.1 E1199.4 F2054.6 ;horizontal move
G1 X23.3 Y65.1 E1200.7 F992.2 ;horizontal move
G1 X22.6 E1201.4 F1647.0 ;horizontal move
G1 X22.4 Y64.9 E1201.7 F1884.6 ;horizontal move
G1 X22.0 Y64.5 E1202.3 F1500.0 ;horizontal move
G1 F18000.0; feed for start of next move
G1 E1162.3; extruder retraction
G1 F1500.0; feed for start of next move
G1 X24.6 Y63.3 F3000.0 ;horizontal move
G1 X53.4 Y49.9 ;horizontal move
G1 X56.0 Y48.7 F1500.0 ;horizontal move
G1 F18000.0; feed for start of next move
G1 E1202.3; extruder dwell
G1 F1500.0; feed for start of next move
G1 F3000.0; feed for start of next move
G1 E1207.3; extruder dwell
G1 F1500.0; feed for start of next move
G1 F3000.0; feed for start of next move
G1 E1212.3; extruder dwell
G1 F1500.0; feed for start of next move
G1 X56.5 Y48.9 E1212.8 F1881.0 ;horizontal move
G1 X57.1 Y48.5 E1213.5 F2327.1 ;horizontal move
G1 X57.9 Y48.3 E1214.4 F2683.4 ;horizontal move
G1 X58.1 E1214.6 F2577.2 ;horizontal move
G1 X58.3 Y48.4 E1214.8 F2700.0 ;horizontal move
G1 X59.0 Y48.5 E1215.5 ;horizontal move
G1 X59.2 Y48.6 E1215.7 F2603.5 ;horizontal move
G1 X59.3 Y48.7 E1215.9 F2700.0 ;horizontal move
G1 X59.9 Y49.2 E1216.6 ;horizontal move
G1 X60.1 Y49.3 E1216.9 F2589.6 ;horizontal move
G1 X60.2 Y49.5 E1217.1 F2700.0 ;horizontal move
G1 X60.5 Y50.2 E1217.9 ;horizontal move
G1 Y50.3 E1218.0 F2638.4 ;horizontal move
G1 X60.6 Y50.4 E1218.1 F2700.0 ;horizontal move
G1 Y50.9 E1218.6 ;horizontal move
G1 X60.7 Y51.1 E1218.8 F2619.4 ;horizontal move
G1 X60.6 Y51.3 E1219.0 F2700.0 ;horizontal move
G1 X60.5 Y51.7 E1219.5 ;horizontal move
G1 Y51.9 E1219.7 F2617.4 ;horizontal move
G1 X60.4 Y52.1 E1219.9 F2700.0 ;horizontal move
G1 X59.8 Y52.8 E1220.8 ;horizontal move
G1 X59.7 Y53.0 E1221.0 F2579.7 ;horizontal move
G1 X59.5 Y53.2 E1221.3 F2700.0 ;horizontal move
G1 X59.0 Y53.4 E1221.8 ;horizontal move
G1 X58.9 Y53.5 E1222.0 F2633.8 ;horizontal move
G1 X58.7 E1222.2 F2700.0 ;horizontal move
G1 X58.1 Y53.7 E1222.8 ;horizontal move
G1 X57.9 E1223.0 F2613.2 ;horizontal move
G1 X57.7 E1223.2 F2700.0 ;horizontal move
G1 X57.3 Y53.6 E1223.6 ;horizontal move
G1 X57.0 Y53.5 E1223.9 F2554.6 ;horizontal move
G1 X56.8 Y53.3 E1224.2 F2700.0 ;horizontal move
G1 X56.1 Y52.8 E1225.1 ;horizontal move
G1 X55.9 Y52.6 E1225.4 F2587.6 ;horizontal move
G1 X55.8 Y52.4 E1225.6 F2700.0 ;horizontal move
G1 X55.5 Y51.7 E1226.4 ;horizontal move
G1 X55.4 Y51.6 E1226.5 F2650.9 ;horizontal move
G1 Y51.5 E1226.6 F2700.0 ;horizontal move
G1 Y51.1 E1227.0 ;horizontal move
G1 X55.3 Y50.8 E1227.3 F2557.7 ;horizontal move
G1 X55.4 Y50.7 E1227.5 F2619.5 ;horizontal move
G1 X55.7 Y49.8 E1228.4 F2141.3 ;horizontal move
G1 X56.5 Y48.9 E1229.6 F1314.1 ;horizontal move
G1 X56.1 Y48.7 E1230.1 F1622.5 ;horizontal move
G1 F18000.0; feed for start of next move
G1 E1190.1; extruder retraction
G1 F1500.0; feed for start of next move
G1 X56.0 F3000.0 ;horizontal move
G1 F1500.0; feed for start of next move
G1 X56.6 Y51.4 F3000.0 ;horizontal move
G1 X57.1 Y53.6 ;horizontal move
G1 X57.7 Y56.3 F1500.0 ;horizontal move
G1 F18000.0; feed for start of next move
G1 E1230.1; extruder dwell
G1 F1500.0; feed for start of next move
G1 F3000.0; feed for start of next move
G1 E1235.1; extruder dwell
G1 F1500.0; feed for start of next move
G1 F3000.0; feed for start of next move
G1 E1240.1; extruder dwell
G1 F1500.0; feed for start of next move
G1 X59.2 Y57.8 E1242.2 F2700.0 ;horizontal move
G1 X65.5 Y64.1 E1251.1 ;horizontal move
G1 X66.5 Y65.1 E1252.5 F1940.5 ;horizontal move
G1 X67.0 E1253.0 F1616.7 ;horizontal move
G1 X67.6 Y65.6 E1253.8 F937.9 ;horizontal move
G1 X64.9 E1256.5 F2700.0 ;horizontal move
G1 X50.5 Y65.5 E1270.9 ;horizontal move
G1 X48.4 E1273.0 F1503.8 ;horizontal move
G1 Y63.4 E1275.1 F2700.0 ;horizontal move
G1 Y38.5 E1300.0 ;horizontal move
G1 Y36.4 E1302.1 F1497.6 ;horizontal move
G1 X50.5 E1304.2 F2700.0 ;horizontal move
G1 X65.5 Y36.5 E1319.2 ;horizontal move
G1 X67.6 E1321.3 F1503.8 ;horizontal move
G1 Y38.6 E1323.4 F2700.0 ;horizontal move
G1 Y62.9 E1347.7 ;horizontal move
G1 Y65.6 E1350.4 F986.6 ;horizontal move
G1 X65.6 Y63.8 E1353.1 F2700.0 ;horizontal move
G1 X59.3 Y57.8 E1361.8 ;horizontal move
G1 F18000.0; feed for start of next move
G1 E1321.8; extruder retraction
G1 F1500.0; feed for start of next move
G1 X57.7 Y56.3 F3000.0 ;horizontal move
G1 F1500.0; feed for start of next move
G1 X59.7 Y58.2 F3000.0 ;horizontal move
G1 X65.0 Y63.2 ;horizontal move
G1 X67.0 Y65.1 F1500.0 ;horizontal move
G1 F18000.0; feed for start of next move
G1 E1361.8; extruder dwell
G1 F1500.0; feed for start of next move
G1 F3000.0; feed for start of next move
G1 E1366.8; extruder dwell
G1 F1500.0; feed for start of next move
G1 F3000.0; feed for start of next move
G1 E1371.8; extruder dwell
G1 F1500.0; feed for start of next move
G1 X67.1 Y64.9 E1372.0 F1644.8 ;horizontal move
G1 X65.2 Y63.1 E1374.6 F3000.0 ;horizontal move
G1 X50.8 Y48.5 E1395.1 ;horizontal move
G1 X48.9 Y46.6 E1397.8 F1593.7 ;horizontal move
G1 Y45.9 E1398.5 F977.6 ;horizontal move
G1 X51.3 Y48.2 E1401.8 F3000.0 ;horizontal move
G1 X52.6 Y49.5 E1403.7 ;horizontal move
G1 X55.0 Y51.8 E1407.0 F901.9 ;horizontal move
G1 X54.9 Y51.1 E1407.7 F1645.4 ;horizontal move
G1 X53.1 Y49.2 E1410.3 F3000.0 ;horizontal move
G1 X50.7 Y46.8 E1413.7 ;horizontal move
G1 X48.9 Y44.9 E1416.3 F1636.6 ;horizontal move
G1 Y44.2 E1417.0 F974.9 ;horizontal move
G1 X51.3 Y46.5 E1420.4 F3000.0 ;horizontal move
G1 X52.8 Y47.9 E1422.4 ;horizontal move
G1 X55.0 Y50.2 E1425.6 F1171.2 ;horizontal move
G1 X55.2 Y49.6 E1426.2 F1654.7 ;horizontal move
G1 X53.4 Y47.8 E1428.8 F3000.0 ;horizontal move
G1 X50.7 Y45.1 E1432.6 ;horizontal move
G1 X48.9 Y43.2 E1435.2 F1636.4 ;horizontal move
G1 Y42.5 E1435.9 F974.5 ;horizontal move
G1 X51.3 Y44.8 E1439.2 F3000.0 ;horizontal move
G1 X53.6 Y47.0 E1442.4 ;horizontal move
G1 X55.6 Y49.0 E1445.2 F1500.0 ;horizontal move
G1 F18000.0; feed for start of next move
G1 E1405.2; extruder retraction
G1 F1500.0; feed for start of next move
G1 X55.8 Y48.9 F1688.2 ;horizontal move
G1 X56.0 Y48.7 F1500.0 ;horizontal move
G1 F18000.0; feed for start of next move
G1 E1445.2; extruder dwell
G1 F1500.0; feed for start of next move
G1 F3000.0; feed for start of next move
G1 E1450.2; extruder dwell
G1 F1500.0; feed for start of next move
G1 F3000.0; feed for start of next move
G1 E1455.2; extruder dwell
G1 F1500.0; feed for start of next move
G1 X54.0 Y46.7 E1458.1 F3000.0 ;horizontal move
G1 X50.8 Y43.4 E1462.7 ;horizontal move
G1 X48.9 Y41.5 E1465.3 F1636.0 ;horizontal move
G1 Y40.8 E1466.0 F973.9 ;horizontal move
G1 X51.3 Y43.2 E1469.4 F3000.0 ;horizontal move
G1 X54.5 Y46.3 E1473.9 ;horizontal move
G1 X56.5 Y48.3 E1476.7 F1500.0 ;horizontal move
G1 F18000.0; feed for start of next move
G1 E1436.7; extruder retraction
G1 F1500.0; feed for start of next move
G1 X56.8 Y48.2 F1747.9 ;horizontal move
G1 X57.1 Y48.0 F1500.0 ;horizontal move
G1 F18000.0; feed for start of next move
G1 E1476.7; extruder dwell
G1 F1500.0; feed for start of next move
G1 F3000.0; feed for start of next move
G1 E1481.7; extruder dwell
G1 F1500.0; feed for start of next move
G1 F3000.0; feed for start of next move
G1 E1486.7; extruder dwell
G1 F1500.0; feed for start of next move
G1 X55.1 Y46.0 E1489.6 F3000.0 ;horizontal move
G1 X50.8 Y41.7 E1495.6 ;horizontal move
G1 X48.9 Y39.8 E1498.3 F1593.2 ;horizontal move
G1 Y39.1 E1499.0 F976.9 ;horizontal move
G1 X51.3 Y41.5 E1502.4 F3000.0 ;horizontal move
G1 X56.0 Y46.0 E1508.9 ;horizontal move
G1 X57.8 Y47.8 E1511.5 F1643.3 ;horizontal move
G1 X58.6 Y47.9 E1512.3 F897.9 ;horizontal move
G1 X56.2 Y45.5 E1515.7 F3000.0 ;horizontal move
G1 X50.8 Y40.0 E1523.4 ;horizontal move
G1 X48.9 Y38.1 E1526.1 F1634.5 ;horizontal move
G1 Y37.4 E1526.8 F971.4 ;horizontal move
G1 X51.3 Y39.7 E1530.1 F3000.0 ;horizontal move
G1 X64.7 Y53.1 E1549.0 ;horizontal move
G1 X67.1 Y55.4 E1552.4 F971.4 ;horizontal move
G1 Y54.7 E1553.1 F1634.5 ;horizontal move
G1 X65.2 Y52.8 E1555.8 F3000.0 ;horizontal move
G1 X51.7 Y39.3 E1574.8 ;horizontal move
G1 X49.4 Y36.9 E1578.2 F971.5 ;horizontal move
G1 X50.1 E1578.9 F1634.5 ;horizontal move
G1 X52.0 Y38.8 E1581.6 F3000.0 ;horizontal move
G1 X64.7 Y51.4 E1599.4 ;horizontal move
G1 X67.1 Y53.8 E1602.8 F971.6 ;horizontal move
G1 Y53.0 E1603.6 F1634.6 ;horizontal move
G1 X65.2 Y51.2 E1606.3 F3000.0 ;horizontal move
G1 X53.5 Y39.3 E1622.9 ;horizontal move
G1 X51.1 Y36.9 E1626.3 F972.7 ;horizontal move
G1 X51.8 E1627.0 F1590.6 ;horizontal move
G1 X53.7 Y38.8 E1629.7 F3000.0 ;horizontal move
G1 X64.7 Y49.7 E1645.2 ;horizontal move
G1 X67.1 Y52.0 E1648.5 F972.8 ;horizontal move
G1 Y51.4 E1649.1 F1590.7 ;horizontal move
G1 X65.2 Y49.4 E1651.9 F3000.0 ;horizontal move
G1 X55.2 Y39.3 E1666.1 ;horizontal move
G1 X52.8 Y36.9 E1669.5 F973.0 ;horizontal move
G1 X53.5 E1670.2 F1635.5 ;horizontal move
G1 X55.4 Y38.8 E1672.9 F3000.0 ;horizontal move
G1 X64.7 Y48.0 E1686.0 ;horizontal move
G1 X67.1 Y50.3 E1689.3 F972.0 ;horizontal move
G1 Y49.6 E1690.0 F1634.9 ;horizontal move
G1 X65.2 Y47.7 E1692.7 F3000.0 ;horizontal move
G1 X56.8 Y39.3 E1704.6 ;horizontal move
G1 X54.5 Y36.9 E1707.9 F972.2 ;horizontal move
G1 X55.2 E1708.6 F1635.0 ;horizontal move
G1 X57.1 Y38.8 E1711.3 F3000.0 ;horizontal move
G1 X64.7 Y46.3 E1721.9 ;horizontal move
G1 X67.1 Y48.7 E1725.3 F972.4 ;horizontal move
G1 Y47.9 E1726.1 F1635.1 ;horizontal move
G1 X65.2 Y46.1 E1728.8 F3000.0 ;horizontal move
G1 X58.5 Y39.3 E1738.3 ;horizontal move
G1 X56.2 Y36.9 E1741.6 F972.6 ;horizontal move
G1 X56.9 E1742.3 F1635.2 ;horizontal move
G1 X58.8 Y38.7 E1744.9 F3000.0 ;horizontal move
G1 X64.7 Y44.6 E1753.3 ;horizontal move
G1 X67.1 Y46.9 E1756.6 F974.4 ;horizontal move
G1 Y46.3 E1757.2 F1591.7 ;horizontal move
G1 X65.2 Y44.3 E1760.0 F3000.0 ;horizontal move
G1 X60.3 Y39.3 E1767.0 ;horizontal move
G1 X57.9 Y36.9 E1770.4 F932.2 ;horizontal move
G1 X58.6 Y37.0 E1771.1 F1613.4 ;horizontal move
G1 X60.5 Y38.8 E1773.7 F3000.0 ;horizontal move
G1 X64.7 Y42.9 E1779.6 ;horizontal move
G1 X67.1 Y45.2 E1782.9 F975.4 ;horizontal move
G1 Y44.5 E1783.6 F1636.9 ;horizontal move
G1 X65.2 Y42.6 E1786.3 F3000.0 ;horizontal move
G1 X62.0 Y39.4 E1790.8 ;horizontal move
G1 X59.6 Y37.0 E1794.2 F973.9 ;horizontal move
G1 X60.4 E1795.0 F1636.0 ;horizontal move
G1 X62.2 Y38.8 E1797.5 F3000.0 ;horizontal move
G1 X64.7 Y41.2 E1801.0 ;horizontal move
G1 X67.1 Y43.6 E1804.4 F974.5 ;horizontal move
G1 Y42.8 E1805.2 F1636.3 ;horizontal move
G1 X65.2 Y41.0 E1807.8 F3000.0 ;horizontal move
G1 X63.7 Y39.4 E1810.0 ;horizontal move
G1 X61.3 Y37.0 E1813.4 F975.2 ;horizontal move
G1 X62.0 E1814.1 F1636.7 ;horizontal move
G1 X63.9 Y38.8 E1816.7 F3000.0 ;horizontal move
G1 X64.7 Y39.5 E1817.8 ;horizontal move
G1 X67.1 Y41.9 E1821.2 F976.1 ;horizontal move
G1 Y41.2 E1821.9 F1637.3 ;horizontal move
G1 X65.3 Y39.3 E1824.5 F2966.2 ;horizontal move
G1 X63.1 Y37.0 E1827.7 F981.4 ;horizontal move
G1 X63.7 E1828.3 F1596.0 ;horizontal move
G1 X65.2 Y38.3 E1830.3 F2703.6 ;horizontal move
G1 X67.1 Y40.1 E1832.9 F984.5 ;horizontal move
G1 Y39.5 E1833.5 F1597.9 ;horizontal move
G1 X66.1 Y38.5 E1834.9 F2427.5 ;horizontal move
G1 X64.7 Y37.0 E1836.9 F989.7 ;horizontal move
G1 X65.5 E1837.7 F1645.4 ;horizontal move
G1 X66.0 Y37.5 E1838.5 F2119.8 ;horizontal move
G1 X67.1 Y38.5 E1839.9 F990.4 ;horizontal move
G1 Y37.7 E1840.7 F1645.9 ;horizontal move
G1 X66.8 Y37.4 E1841.2 F1925.0 ;horizontal move
G1 X66.4 Y37.0 E1841.7 F1500.0 ;horizontal move
G1 F18000.0; feed for start of next move
G1 E1801.7; extruder retraction
G1 F1500.0; feed for start of next move
G1 X65.3 Y39.6 F3000.0 ;horizontal move
G1 X62.1 Y47.6 ;horizontal move
G1 X61.0 Y50.2 F1500.0 ;horizontal move
G1 F18000.0; feed for start of next move
G1 E1841.7; extruder dwell
G1 F1500.0; feed for start of next move
G1 F3000.0; feed for start of next move
G1 E1846.7; extruder dwell
G1 F1500.0; feed for start of next move
G1 F3000.0; feed for start of next move
G1 E1851.7; extruder dwell
G1 F1500.0; feed for start of next move
G1 X63.0 Y52.2 E1854.6 F3000.0 ;horizontal move
G1 X65.2 Y54.5 E1857.7 ;horizontal move
G1 X67.1 Y56.4 E1860.4 F1635.1 ;horizontal move
G1 Y57.1 E1861.1 F972.4 ;horizontal move
G1 X64.7 Y54.8 E1864.5 F3000.0 ;horizontal move
G1 X63.1 Y53.2 E1866.7 ;horizontal move
G1 X61.1 Y51.2 E1869.5 F1500.0 ;horizontal move
G1 F18000.0; feed for start of next move
G1 E1829.5; extruder retraction
G1 F1500.0; feed for start of next move
G1 Y51.6 F1760.3 ;horizontal move
G1 X61.0 Y51.9 F1500.0 ;horizontal move
G1 F18000.0; feed for start of next move
G1 E1869.5; extruder dwell
G1 F1500.0; feed for start of next move
G1 F3000.0; feed for start of next move
G1 E1874.5; extruder dwell
G1 F1500.0; feed for start of next move
G1 F3000.0; feed for start of next move
G1 E1879.5; extruder dwell
G1 F1500.0; feed for start of next move
G1 X62.9 Y53.9 E1882.3 F3000.0 ;horizontal move
G1 X65.2 Y56.2 E1885.6 ;horizontal move
G1 X67.1 Y58.1 E1888.2 F1590.3 ;horizontal move
G1 Y58.8 E1888.9 F972.2 ;horizontal move
G1 X64.7 Y56.4 E1892.3 F3000.0 ;horizontal move
G1 X62.7 Y54.5 E1895.1 ;horizontal move
G1 X60.7 Y52.5 E1897.9 F1500.0 ;horizontal move
G1 F18000.0; feed for start of next move
G1 E1857.9; extruder retraction
G1 F1500.0; feed for start of next move
G1 X60.6 Y52.8 F1717.5 ;horizontal move
G1 X60.4 Y53.0 F1500.0 ;horizontal move
G1 F18000.0; feed for start of next move
G1 E1897.9; extruder dwell
G1 F1500.0; feed for start of next move
G1 F3000.0; feed for start of next move
G1 E1902.9; extruder dwell
G1 F1500.0; feed for start of next move
G1 F3000.0; feed for start of next move
G1 E1907.9; extruder dwell
G1 F1500.0; feed for start of next move
G1 X62.4 Y55.0 E1910.8 F3000.0 ;horizontal move
G1 X65.2 Y57.9 E1914.8 ;horizontal move
G1 X67.1 Y59.8 E1917.5 F1633.5 ;horizontal move
G1 Y60.5 E1918.2 F969.7 ;horizontal move
G1 X64.7 Y58.2 E1921.5 F3000.0 ;horizontal move
G1 X62.0 Y55.4 E1925.4 ;horizontal move
G1 X60.0 Y53.5 E1928.1 F1500.0 ;horizontal move
G1 F18000.0; feed for start of next move
G1 E1888.1; extruder retraction
G1 F1500.0; feed for start of next move
G1 X59.8 Y53.7 F1717.5 ;horizontal move
G1 X59.5 Y53.8 F1500.0 ;horizontal move
G1 F18000.0; feed for start of next move
G1 E1928.1; extruder dwell
G1 F1500.0; feed for start of next move
G1 F3000.0; feed for start of next move
G1 E1933.1; extruder dwell
G1 F1500.0; feed for start of next move
G1 F3000.0; feed for start of next move
G1 E1938.1; extruder dwell
G1 F1500.0; feed for start of next move
G1 X61.4 Y55.8 E1940.9 F3000.0 ;horizontal move
G1 X65.2 Y59.6 E1946.3 ;horizontal move
G1 X67.1 Y61.5 E1949.0 F1635.8 ;horizontal move
G1 Y62.2 E1949.7 F973.5 ;horizontal move
G1 X64.7 Y59.9 E1953.0 F3000.0 ;horizontal move
G1 X60.6 Y55.9 E1958.7 ;horizontal move
G1 X58.7 Y54.0 E1961.4 F1630.1 ;horizontal move
G1 X58.1 Y54.1 E1962.0 F1090.2 ;horizontal move
G1 X60.4 Y56.4 E1965.3 F3000.0 ;horizontal move
G1 X65.2 Y61.3 E1972.1 ;horizontal move
G1 X67.1 Y63.2 E1974.8 F1589.8 ;horizontal move
G1 Y63.9 E1975.5 F971.3 ;horizontal move
G1 X64.7 Y61.5 E1978.9 F3000.0 ;horizontal move
G1 X59.1 Y56.0 E1986.8 ;horizontal move
G1 X57.1 Y54.0 E1989.6 F1500.0 ;horizontal move
G1 F18000.0; feed for start of next move
G1 E1949.6; extruder retraction
G1 F1500.0; feed for start of next move
G1 X57.4 Y55.2 F2258.8 ;horizontal move
G1 X57.7 Y56.3 F1500.0 ;horizontal move
G1 F18000.0; feed for start of next move
G1 E1989.6; extruder dwell
G1 F1500.0; feed for start of next move
G1 F3000.0; feed for start of next move
G1 E1994.6; extruder dwell
G1 F1500.0; feed for start of next move
G1 F3000.0; feed for start of next move
G1 E1999.6; extruder dwell
G1 F1500.0; feed for start of next move
G1 X55.7 Y54.4 E2002.3 F3000.0 ;horizontal move
G1 X51.3 Y49.9 E2008.6 ;horizontal move
G1 X48.9 Y47.6 E2012.0 F971.5 ;horizontal move
G1 Y48.3 E2012.7 F1634.6 ;horizontal move
G1 X50.8 Y50.2 E2015.3 F3000.0 ;horizontal move
G1 X63.2 Y62.7 E2033.0 ;horizontal move
G1 X65.6 Y65.1 E2036.3 F971.6 ;horizontal move
G1 X64.9 E2037.0 F1634.6 ;horizontal move
G1 X63.0 Y63.2 E2039.7 F3000.0 ;horizontal move
G1 X51.3 Y51.6 E2056.2 ;horizontal move
G1 X48.9 Y49.3 E2059.5 F971.7 ;horizontal move
G1 Y50.0 E2060.2 F1634.7 ;horizontal move
G1 X50.8 Y51.9 E2062.9 F3000.0 ;horizontal move
G1 X61.5 Y62.7 E2078.1 ;horizontal move
G1 X63.9 Y65.1 E2081.5 F971.8 ;horizontal move
G1 X63.2 E2082.2 F1634.7 ;horizontal move
G1 X61.3 Y63.2 E2084.9 F3000.0 ;horizontal move
G1 X51.3 Y53.4 E2098.9 ;horizontal move
G1 X48.9 Y51.0 E2102.3 F973.0 ;horizontal move
G1 Y51.7 E2103.0 F1590.9 ;horizontal move
G1 X50.8 Y53.6 E2105.7 F3000.0 ;horizontal move
G1 X59.8 Y62.7 E2118.5 ;horizontal move
G1 X62.2 Y65.1 E2121.9 F973.3 ;horizontal move
G1 X61.5 E2122.6 F1591.0 ;horizontal move
G1 X59.6 Y63.2 E2125.3 F3000.0 ;horizontal move
G1 X51.3 Y55.0 E2136.9 ;horizontal move
G1 X48.9 Y52.7 E2140.3 F973.5 ;horizontal move
G1 Y53.3 E2140.9 F1591.1 ;horizontal move
G1 X50.8 Y55.3 E2143.6 F3000.0 ;horizontal move
G1 X58.1 Y62.7 E2154.0 ;horizontal move
G1 X60.5 Y65.1 E2157.4 F973.8 ;horizontal move
G1 X59.8 E2158.1 F1635.9 ;horizontal move
G1 X57.9 Y63.2 E2160.8 F3000.0 ;horizontal move
G1 X51.3 Y56.7 E2170.1 ;horizontal move
G1 X48.9 Y54.4 E2173.4 F972.6 ;horizontal move
G1 Y55.1 E2174.1 F1635.2 ;horizontal move
G1 X50.8 Y57.0 E2176.8 F3000.0 ;horizontal move
G1 X56.4 Y62.7 E2184.8 ;horizontal move
G1 X58.8 Y65.1 E2188.1 F972.9 ;horizontal move
G1 X58.1 E2188.8 F1635.4 ;horizontal move
G1 X56.2 Y63.2 E2191.5 F3000.0 ;horizontal move
G1 X51.3 Y58.4 E2198.4 ;horizontal move
G1 X48.9 Y56.0 E2201.8 F973.2 ;horizontal move
G1 Y56.8 E2202.6 F1635.6 ;horizontal move
G1 X50.7 Y58.6 E2205.1 F3000.0 ;horizontal move
G1 X54.7 Y62.6 E2210.8 ;horizontal move
G1 X57.0 Y65.0 E2214.1 F975.5 ;horizontal move
G1 X56.3 E2214.8 F1592.4 ;horizontal move
G1 X54.4 Y63.2 E2217.4 F3000.0 ;horizontal move
G1 X51.3 Y60.1 E2221.8 ;horizontal move
G1 X48.9 Y57.8 E2225.1 F976.2 ;horizontal move
G1 Y58.4 E2225.7 F1592.8 ;horizontal move
G1 X50.8 Y60.4 E2228.5 F3000.0 ;horizontal move
G1 X53.0 Y62.6 E2231.6 ;horizontal move
G1 X55.3 Y65.0 E2234.9 F977.1 ;horizontal move
G1 X54.7 E2235.5 F1593.3 ;horizontal move
G1 X52.7 Y63.2 E2238.2 F3000.0 ;horizontal move
G1 X51.3 Y61.8 E2240.2 ;horizontal move
G1 X48.9 Y59.5 E2243.5 F978.2 ;horizontal move
G1 Y60.2 E2244.2 F1638.5 ;horizontal move
G1 X50.7 Y62.1 E2246.8 F3000.0 ;horizontal move
G1 X51.3 Y62.6 E2247.6 ;horizontal move
G1 X53.6 Y65.0 E2251.0 F976.3 ;horizontal move
G1 X52.9 E2251.7 F1637.4 ;horizontal move
G1 X51.2 Y63.3 E2254.1 F2922.3 ;horizontal move
G1 X48.9 Y61.1 E2257.2 F977.8 ;horizontal move
G1 Y61.9 E2258.0 F1638.3 ;horizontal move
G1 X50.2 Y63.2 E2259.9 F2668.0 ;horizontal move
G1 X52.0 Y65.0 E2262.4 F980.0 ;horizontal move
G1 X51.2 E2263.2 F1639.6 ;horizontal move
G1 X50.3 Y64.2 E2264.4 F2378.4 ;horizontal move
G1 X48.9 Y62.9 E2266.3 F991.3 ;horizontal move
G1 Y63.5 E2266.9 F1602.1 ;horizontal move
G1 X49.4 Y64.0 E2267.6 F2054.6 ;horizontal move
G1 X50.3 Y65.0 E2269.0 F992.2 ;horizontal move
G1 X49.6 E2269.7 F1647.0 ;horizontal move
G1 X49.3 Y64.8 E2270.1 F1884.6 ;horizontal move
G1 X48.9 Y64.4 E2270.6 F1500.0 ;horizontal move
G1 F18000.0; feed for start of next move
G1 E2230.6; extruder retraction
G1 F1500.0; feed for start of next move
G1 X50.0 Y67.0 F3000.0 ;horizontal move
G1 X55.8 Y81.0 ;horizontal move
G1 X56.9 Y83.6 F1500.0 ;horizontal move
G1 F18000.0; feed for start of next move
G1 E2270.6; extruder dwell
G1 F1500.0; feed for start of next move
G1 F3000.0; feed for start of next move
G1 E2275.6; extruder dwell
G1 F1500.0; feed for start of next move
G1 F3000.0; feed for start of next move
G1 E2280.6; extruder dwell
G1 F1500.0; feed for start of next move
G1 X57.3 Y83.9 E2281.1 F1837.0 ;horizontal move
G1 X58.3 Y83.5 E2282.2 F2439.4 ;horizontal move
G1 X58.8 Y83.4 E2282.7 F2700.0 ;horizontal move
G1 X59.2 E2283.1 ;horizontal move
G1 X59.7 E2283.6 F2462.5 ;horizontal move
G1 X60.1 Y83.7 E2284.1 F2700.0 ;horizontal move
G1 X60.8 Y84.1 E2284.9 ;horizontal move
G1 X61.0 Y84.3 E2285.2 F2575.3 ;horizontal move
G1 X61.2 Y84.5 E2285.5 F2700.0 ;horizontal move
G1 X61.4 Y85.0 E2286.0 ;horizontal move
G1 X61.6 Y85.3 E2286.4 F2575.4 ;horizontal move
G1 Y85.5 E2286.6 F2700.0 ;horizontal move
G1 Y86.1 E2287.2 ;horizontal move
G1 Y86.4 E2287.5 F2554.8 ;horizontal move
G1 X61.5 Y86.7 E2287.8 F2700.0 ;horizontal move
G1 X61.1 Y87.4 E2288.6 ;horizontal move
G1 X61.0 Y87.7 E2288.9 F2562.8 ;horizontal move
G1 X60.8 Y87.8 E2289.1 F2700.0 ;horizontal move
G1 X60.1 Y88.3 E2290.0 ;horizontal move
G1 X59.8 Y88.6 E2290.4 F2537.6 ;horizontal move
G1 X59.5 E2290.7 F2700.0 ;horizontal move
G1 X58.9 Y88.7 E2291.3 ;horizontal move
G1 X58.8 E2291.4 F2647.5 ;horizontal move
G1 X58.7 E2291.5 F2700.0 ;horizontal move
G1 X58.4 Y88.6 E2291.8 ;horizontal move
G1 X58.1 E2292.1 F2601.4 ;horizontal move
G1 X58.0 Y88.4 E2292.4 F2700.0 ;horizontal move
G1 X57.4 Y88.1 E2293.0 ;horizontal move
G1 X57.2 Y88.0 E2293.3 F2591.5 ;horizontal move
G1 X57.1 Y87.8 E2293.5 F2700.0 ;horizontal move
G1 X56.6 Y86.9 E2294.5 ;horizontal move
G1 X56.5 Y86.7 E2294.7 F2590.8 ;horizontal move
G1 X56.4 Y86.5 E2295.0 F2700.0 ;horizontal move
G1 Y86.0 E2295.5 ;horizontal move
G1 X56.3 Y85.7 E2295.8 F2582.6 ;horizontal move
G1 X56.4 Y85.6 E2295.9 F2655.5 ;horizontal move
G1 X56.6 Y84.8 E2296.7 F2270.9 ;horizontal move
G1 X57.3 Y83.9 E2297.9 F1574.3 ;horizontal move
G1 X57.2 Y83.8 E2298.0 F1710.7 ;horizontal move
G1 F18000.0; feed for start of next move
G1 E2258.0; extruder retraction
G1 F1500.0; feed for start of next move
G1 X56.9 Y83.6 F3000.0 ;horizontal move
G1 F1500.0; feed for start of next move
G1 X57.5 Y86.3 F3000.0 ;horizontal move
G1 X58.1 Y88.7 ;horizontal move
G1 X58.7 Y91.4 F1500.0 ;horizontal move
G1 F18000.0; feed for start of next move
G1 E2298.0; extruder dwell
G1 F1500.0; feed for start of next move
G1 F3000.0; feed for start of next move
G1 E2303.0; extruder dwell
G1 F1500.0; feed for start of next move
G1 F3000.0; feed for start of next move
G1 E2308.0; extruder dwell
G1 F1500.0; feed for start of next move
G1 X60.2 Y92.8 E2310.1 F2700.0 ;horizontal move
G1 X66.5 Y99.0 E2318.9 ;horizontal move
G1 X67.6 Y100.1 E2320.5 F1919.8 ;horizontal move
G1 X68.0 E2320.9 F1636.3 ;horizontal move
G1 X68.6 Y100.6 E2321.7 F912.9 ;horizontal move
G1 X65.9 E2324.4 F2700.0 ;horizontal move
G1 X51.5 Y100.5 E2338.8 ;horizontal move
G1 X49.4 E2340.9 F1503.8 ;horizontal move
G1 Y98.4 E2343.0 F2700.0 ;horizontal move
G1 Y73.6 E2367.8 ;horizontal move
G1 Y71.5 E2369.9 F1500.0 ;horizontal move
G1 X51.5 E2372.0 F2700.0 ;horizontal move
G1 X66.5 E2387.0 ;horizontal move
G1 X68.6 E2389.1 F1500.0 ;horizontal move
G1 Y73.6 E2391.2 F2700.0 ;horizontal move
G1 Y97.9 E2415.5 ;horizontal move
G1 Y100.6 E2418.2 F987.5 ;horizontal move
G1 X66.7 Y98.8 E2420.8 F2700.0 ;horizontal move
G1 X60.3 Y92.8 E2429.5 ;horizontal move
G1 F18000.0; feed for start of next move
G1 E2389.5; extruder retraction
G1 F1500.0; feed for start of next move
G1 X58.7 Y91.4 F3000.0 ;horizontal move
G1 F1500.0; feed for start of next move
G1 X60.8 Y93.3 F3000.0 ;horizontal move
G1 X65.9 Y98.2 ;horizontal move
G1 X68.0 Y100.1 F1500.0 ;horizontal move
G1 F18000.0; feed for start of next move
G1 E2429.5; extruder dwell
G1 F1500.0; feed for start of next move
G1 F3000.0; feed for start of next move
G1 E2434.5; extruder dwell
G1 F1500.0; feed for start of next move
G1 F3000.0; feed for start of next move
G1 E2439.5; extruder dwell
G1 F1500.0; feed for start of next move
G1 Y100.0 E2439.6 F1570.0 ;horizontal move
G1 X68.1 E2439.7 F1507.4 ;horizontal move
G1 X66.1 Y98.0 E2442.6 F3000.0 ;horizontal move
G1 X51.8 Y83.5 E2462.9 ;horizontal move
G1 X49.9 Y81.6 E2465.6 F1593.7 ;horizontal move
G1 Y80.9 E2466.3 F977.6 ;horizontal move
G1 X52.3 Y83.3 E2469.7 F3000.0 ;horizontal move
G1 X53.6 Y84.5 E2471.5 ;horizontal move
G1 X56.0 Y86.9 E2474.9 F901.9 ;horizontal move
G1 X55.9 Y86.1 E2475.7 F1645.4 ;horizontal move
G1 X54.1 Y84.2 E2478.3 F3000.0 ;horizontal move
G1 X51.9 Y82.0 E2481.4 ;horizontal move
G1 X49.9 Y80.0 E2484.2 F1500.0 ;horizontal move
G1 F18000.0; feed for start of next move
G1 E2444.2; extruder retraction
G1 F1500.0; feed for start of next move
G1 Y78.7 F2317.3 ;horizontal move
G1 Y77.4 F1500.0 ;horizontal move
G1 F18000.0; feed for start of next move
G1 E2484.2; extruder dwell
G1 F1500.0; feed for start of next move
G1 F3000.0; feed for start of next move
G1 E2489.2; extruder dwell
G1 F1500.0; feed for start of next move
G1 F3000.0; feed for start of next move
G1 E2494.2; extruder dwell
G1 F1500.0; feed for start of next move
G1 X51.9 Y79.4 E2497.1 F3000.0 ;horizontal move
G1 X54.8 Y82.4 E2501.2 ;horizontal move
G1 X56.5 Y84.1 E2503.7 F1759.9 ;horizontal move
G1 X56.2 Y84.5 E2504.2 F1383.8 ;horizontal move
G1 X54.1 Y82.5 E2507.1 F3000.0 ;horizontal move
G1 X52.3 Y80.7 E2509.6 ;horizontal move
G1 X49.9 Y78.4 E2512.9 F974.8 ;horizontal move
G1 Y79.1 E2513.6 F1636.5 ;horizontal move
G1 X51.8 Y80.9 E2516.2 F3000.0 ;horizontal move
G1 X54.0 Y83.2 E2519.4 ;horizontal move
G1 X56.0 Y85.1 E2522.2 F1500.0 ;horizontal move
G1 F18000.0; feed for start of next move
G1 E2482.2; extruder retraction
G1 F1500.0; feed for start of next move
G1 X56.5 Y84.4 F2085.5 ;horizontal move
G1 X56.9 Y83.6 F1500.0 ;horizontal move
G1 F18000.0; feed for start of next move
G1 E2522.2; extruder dwell
G1 F1500.0; feed for start of next move
G1 F3000.0; feed for start of next move
G1 E2527.2; extruder dwell
G1 F1500.0; feed for start of next move
G1 F3000.0; feed for start of next move
G1 E2532.2; extruder dwell
G1 F1500.0; feed for start of next move
G1 X55.0 Y81.6 E2534.9 F3000.0 ;horizontal move
G1 X51.8 Y78.4 E2539.5 ;horizontal move
G1 X49.9 Y76.5 E2542.2 F1592.7 ;horizontal move
G1 Y75.8 E2542.9 F976.0 ;horizontal move
G1 X52.3 Y78.2 E2546.2 F3000.0 ;horizontal move
G1 X55.7 Y81.5 E2551.0 ;horizontal move
G1 X57.5 Y83.3 E2553.5 F1696.7 ;horizontal move
G1 X58.0 Y83.0 E2554.1 F1310.7 ;horizontal move
G1 X55.8 Y80.9 E2557.2 F3000.0 ;horizontal move
G1 X51.8 Y76.7 E2563.0 ;horizontal move
G1 X49.9 Y74.8 E2565.6 F1592.1 ;horizontal move
G1 Y74.2 E2566.2 F975.1 ;horizontal move
G1 X52.3 Y76.5 E2569.6 F3000.0 ;horizontal move
G1 X56.9 Y81.0 E2576.0 ;horizontal move
G1 X58.8 Y82.9 E2578.7 F1658.0 ;horizontal move
G1 X59.6 E2579.5 F933.6 ;horizontal move
G1 X57.2 Y80.5 E2582.9 F3000.0 ;horizontal move
G1 X51.8 Y75.0 E2590.6 ;horizontal move
G1 X49.9 Y73.1 E2593.3 F1634.5 ;horizontal move
G1 Y72.4 E2594.0 F971.4 ;horizontal move
G1 X52.3 Y74.8 E2597.4 F3000.0 ;horizontal move
G1 X65.7 Y88.1 E2616.3 ;horizontal move
G1 X68.1 Y90.5 E2619.6 F971.4 ;horizontal move
G1 Y89.8 E2620.3 F1634.5 ;horizontal move
G1 X66.2 Y87.9 E2623.0 F3000.0 ;horizontal move
G1 X52.8 Y74.3 E2642.1 ;horizontal move
G1 X50.4 Y71.9 E2645.5 F971.5 ;horizontal move
G1 X51.1 E2646.2 F1634.5 ;horizontal move
G1 X53.0 Y73.8 E2648.9 F3000.0 ;horizontal move
G1 X65.7 Y86.4 E2666.8 ;horizontal move
G1 X68.1 Y88.7 E2670.1 F972.5 ;horizontal move
G1 Y88.1 E2670.7 F1590.5 ;horizontal move
G1 X66.2 Y86.2 E2673.4 F3000.0 ;horizontal move
G1 X54.5 Y74.3 E2690.1 ;horizontal move
G1 X52.1 Y71.9 E2693.5 F972.7 ;horizontal move
G1 X52.8 E2694.2 F1590.6 ;horizontal move
G1 X54.7 Y73.8 E2696.9 F3000.0 ;horizontal move
G1 X65.7 Y84.7 E2712.4 ;horizontal move
G1 X68.1 Y87.1 E2715.8 F972.8 ;horizontal move
G1 Y86.4 E2716.5 F1590.7 ;horizontal move
G1 X66.2 Y84.5 E2719.1 F3000.0 ;horizontal move
G1 X56.2 Y74.3 E2733.4 ;horizontal move
G1 X53.8 Y71.9 E2736.8 F973.0 ;horizontal move
G1 X54.5 E2737.5 F1635.5 ;horizontal move
G1 X56.4 Y73.8 E2740.2 F3000.0 ;horizontal move
G1 X65.7 Y83.0 E2753.3 ;horizontal move
G1 X68.1 Y85.4 E2756.7 F972.0 ;horizontal move
G1 Y84.7 E2757.4 F1634.9 ;horizontal move
G1 X66.2 Y82.8 E2760.1 F3000.0 ;horizontal move
G1 X57.9 Y74.3 E2772.0 ;horizontal move
G1 X55.5 Y71.9 E2775.3 F972.2 ;horizontal move
G1 X56.2 E2776.0 F1635.0 ;horizontal move
G1 X58.1 Y73.8 E2778.7 F3000.0 ;horizontal move
G1 X65.7 Y81.3 E2789.4 ;horizontal move
G1 X68.1 Y83.7 E2792.8 F972.4 ;horizontal move
G1 Y83.0 E2793.5 F1635.1 ;horizontal move
G1 X66.3 Y81.1 E2796.1 F3000.0 ;horizontal move
G1 X59.6 Y74.3 E2805.7 ;horizontal move
G1 X57.2 Y71.9 E2809.1 F974.0 ;horizontal move
G1 X57.9 E2809.8 F1591.5 ;horizontal move
G1 X59.8 Y73.8 E2812.4 F3000.0 ;horizontal move
G1 X65.7 Y79.6 E2820.7 ;horizontal move
G1 X68.1 Y82.0 E2824.1 F974.4 ;horizontal move
G1 Y81.3 E2824.8 F1591.7 ;horizontal move
G1 X66.2 Y79.4 E2827.5 F3000.0 ;horizontal move
G1 X61.3 Y74.3 E2834.6 ;horizontal move
G1 X58.9 Y71.9 E2838.0 F974.8 ;horizontal move
G1 X59.6 E2838.7 F1592.0 ;horizontal move
G1 X61.5 Y73.8 E2841.4 F3000.0 ;horizontal move
G1 X65.7 Y77.9 E2847.2 ;horizontal move
G1 X68.1 Y80.3 E2850.6 F975.4 ;horizontal move
G1 Y79.6 E2851.3 F1636.9 ;horizontal move
G1 X66.3 Y77.7 E2853.9 F3000.0 ;horizontal move
G1 X63.0 Y74.3 E2858.7 ;horizontal move
G1 X60.6 Y71.9 E2862.1 F973.9 ;horizontal move
G1 X61.3 E2862.8 F1636.0 ;horizontal move
G1 X63.2 Y73.8 E2865.5 F3000.0 ;horizontal move
G1 X65.7 Y76.2 E2868.9 ;horizontal move
G1 X68.1 Y78.6 E2872.3 F974.4 ;horizontal move
G1 Y77.9 E2873.0 F1636.3 ;horizontal move
G1 X66.3 Y76.0 E2875.6 F3000.0 ;horizontal move
G1 X64.6 Y74.3 E2878.0 ;horizontal move
G1 X62.3 Y71.9 E2881.4 F975.1 ;horizontal move
G1 X63.0 E2882.1 F1636.7 ;horizontal move
G1 X64.9 Y73.8 E2884.7 F3000.0 ;horizontal move
G1 X65.7 Y74.5 E2885.8 ;horizontal move
G1 X68.1 Y76.9 E2889.2 F979.3 ;horizontal move
G1 Y76.2 E2889.9 F1594.7 ;horizontal move
G1 X66.3 Y74.3 E2892.5 F2971.7 ;horizontal move
G1 X64.0 Y71.9 E2895.8 F981.2 ;horizontal move
G1 X64.7 E2896.5 F1595.9 ;horizontal move
G1 X66.2 Y73.3 E2898.6 F2722.3 ;horizontal move
G1 X68.1 Y75.2 E2901.3 F984.2 ;horizontal move
G1 Y74.5 E2902.0 F1597.7 ;horizontal move
G1 X67.1 Y73.5 E2903.4 F2448.3 ;horizontal move
G1 X65.7 Y71.9 E2905.5 F989.2 ;horizontal move
G1 X66.4 E2906.2 F1645.1 ;horizontal move
G1 X67.0 Y72.5 E2907.1 F2143.4 ;horizontal move
G1 X68.1 Y73.5 E2908.6 F989.7 ;horizontal move
G1 Y72.8 E2909.3 F1645.4 ;horizontal move
G1 X67.8 Y72.4 E2909.8 F1951.0 ;horizontal move
G1 X67.4 Y71.9 E2910.4 F1500.0 ;horizontal move
G1 F18000.0; feed for start of next move
G1 E2870.4; extruder retraction
G1 F1500.0; feed for start of next move
G1 X66.3 Y74.5 F3000.0 ;horizontal move
G1 X63.1 Y82.7 ;horizontal move
G1 X62.0 Y85.3 F1500.0 ;horizontal move
G1 F18000.0; feed for start of next move
G1 E2910.4; extruder dwell
G1 F1500.0; feed for start of next move
G1 F3000.0; feed for start of next move
G1 E2915.4; extruder dwell
G1 F1500.0; feed for start of next move
G1 F3000.0; feed for start of next move
G1 E2920.4; extruder dwell
G1 F1500.0; feed for start of next move
G1 X64.0 Y87.3 E2923.2 F3000.0 ;horizontal move
G1 X66.3 Y89.6 E2926.5 ;horizontal move
G1 X68.1 Y91.4 E2929.0 F1638.3 ;horizontal move
G1 Y92.2 E2929.8 F977.8 ;horizontal move
G1 X65.7 Y89.8 E2933.2 F3000.0 ;horizontal move
G1 X64.4 Y88.6 E2935.0 ;horizontal move
G1 X62.1 Y86.3 E2938.2 F1107.0 ;horizontal move
G1 X62.0 Y86.9 E2938.9 F1597.8 ;horizontal move
G1 X63.9 Y88.8 E2941.5 F3000.0 ;horizontal move
G1 X66.2 Y91.2 E2944.9 ;horizontal move
G1 X68.1 Y93.2 E2947.6 F1590.3 ;horizontal move
G1 Y93.8 E2948.2 F972.2 ;horizontal move
G1 X65.7 Y91.5 E2951.5 F3000.0 ;horizontal move
G1 X63.7 Y89.5 E2954.4 ;horizontal move
G1 X61.7 Y87.5 E2957.2 F1500.0 ;horizontal move
G1 F18000.0; feed for start of next move
G1 E2917.2; extruder retraction
G1 F1500.0; feed for start of next move
G1 X61.6 Y87.8 F1717.5 ;horizontal move
G1 X61.4 Y88.0 F1500.0 ;horizontal move
G1 F18000.0; feed for start of next move
G1 E2957.2; extruder dwell
G1 F1500.0; feed for start of next move
G1 F3000.0; feed for start of next move
G1 E2962.2; extruder dwell
G1 F1500.0; feed for start of next move
G1 F3000.0; feed for start of next move
G1 E2967.2; extruder dwell
G1 F1500.0; feed for start of next move
G1 X63.4 Y90.0 E2970.0 F3000.0 ;horizontal move
G1 X66.3 Y93.0 E2974.2 ;horizontal move
G1 X68.1 Y94.9 E2976.8 F1634.8 ;horizontal move
G1 Y95.6 E2977.5 F971.9 ;horizontal move
G1 X65.7 Y93.2 E2980.9 F3000.0 ;horizontal move
G1 X62.6 Y90.2 E2985.2 ;horizontal move
G1 X60.9 Y88.4 E2987.7 F1773.7 ;horizontal move
G1 X60.4 Y88.7 E2988.3 F1337.0 ;horizontal move
G1 X62.5 Y90.9 E2991.3 F3000.0 ;horizontal move
G1 X66.3 Y94.7 E2996.7 ;horizontal move
G1 X68.1 Y96.5 E2999.3 F1635.8 ;horizontal move
G1 Y97.3 E3000.1 F973.5 ;horizontal move
G1 X65.7 Y94.9 E3003.4 F3000.0 ;horizontal move
G1 X61.6 Y90.9 E3009.2 ;horizontal move
G1 X59.8 Y89.0 E3011.8 F1630.1 ;horizontal move
G1 X59.2 Y89.2 E3012.4 F1090.2 ;horizontal move
G1 X61.4 Y91.5 E3015.6 F3000.0 ;horizontal move
G1 X66.2 Y96.4 E3022.5 ;horizontal move
G1 X68.1 Y98.3 E3025.2 F1589.8 ;horizontal move
G1 Y98.9 E3025.8 F971.3 ;horizontal move
G1 X65.7 Y96.6 E3029.1 F3000.0 ;horizontal move
G1 X60.1 Y91.0 E3037.0 ;horizontal move
G1 X58.1 Y89.0 E3039.8 F1500.0 ;horizontal move
G1 F18000.0; feed for start of next move
G1 E2999.8; extruder retraction
G1 F1500.0; feed for start of next move
G1 X58.4 Y90.2 F2284.4 ;horizontal move
G1 X58.7 Y91.4 F1500.0 ;horizontal move
G1 F18000.0; feed for start of next move
G1 E3039.8; extruder dwell
G1 F1500.0; feed for start of next move
G1 F3000.0; feed for start of next move
G1 E3044.8; extruder dwell
G1 F1500.0; feed for start of next move
G1 F3000.0; feed for start of next move
G1 E3049.8; extruder dwell
G1 F1500.0; feed for start of next move
G1 X56.7 Y89.4 E3052.7 F3000.0 ;horizontal move
G1 X52.3 Y85.0 E3058.9 ;horizontal move
G1 X49.9 Y82.6 E3062.3 F972.4 ;horizontal move
G1 Y83.3 E3063.0 F1635.1 ;horizontal move
G1 X51.8 Y85.2 E3065.7 F3000.0 ;horizontal move
G1 X64.2 Y97.7 E3083.3 ;horizontal move
G1 X66.5 Y100.1 E3086.6 F971.6 ;horizontal move
G1 X65.8 E3087.3 F1634.6 ;horizontal move
G1 X63.9 Y98.2 E3090.0 F3000.0 ;horizontal move
G1 X52.3 Y86.7 E3106.3 ;horizontal move
G1 X49.9 Y84.3 E3109.7 F971.7 ;horizontal move
G1 Y85.0 E3110.4 F1634.7 ;horizontal move
G1 X51.8 Y86.9 E3113.1 F3000.0 ;horizontal move
G1 X62.5 Y97.7 E3128.3 ;horizontal move
G1 X64.9 Y100.1 E3131.7 F971.8 ;horizontal move
G1 X64.1 E3132.5 F1634.7 ;horizontal move
G1 X62.3 Y98.2 E3135.1 F3000.0 ;horizontal move
G1 X52.3 Y88.4 E3149.1 ;horizontal move
G1 X49.9 Y86.0 E3152.5 F973.1 ;horizontal move
G1 Y86.7 E3153.2 F1590.9 ;horizontal move
G1 X51.8 Y88.6 E3155.9 F3000.0 ;horizontal move
G1 X60.8 Y97.7 E3168.7 ;horizontal move
G1 X63.1 Y100.1 E3172.0 F973.3 ;horizontal move
G1 X62.5 E3172.6 F1591.0 ;horizontal move
G1 X60.5 Y98.2 E3175.4 F3000.0 ;horizontal move
G1 X52.3 Y90.1 E3186.9 ;horizontal move
G1 X49.9 Y87.7 E3190.3 F973.5 ;horizontal move
G1 Y88.4 E3191.0 F1591.1 ;horizontal move
G1 X51.8 Y90.3 E3193.7 F3000.0 ;horizontal move
G1 X59.1 Y97.7 E3204.1 ;horizontal move
G1 X61.4 Y100.1 E3207.4 F973.8 ;horizontal move
G1 X60.7 E3208.1 F1635.9 ;horizontal move
G1 X58.8 Y98.2 E3210.8 F3000.0 ;horizontal move
G1 X52.3 Y91.8 E3219.9 ;horizontal move
G1 X49.9 Y89.4 E3223.3 F972.6 ;horizontal move
G1 Y90.1 E3224.0 F1635.2 ;horizontal move
G1 X51.8 Y92.0 E3226.7 F3000.0 ;horizontal move
G1 X57.4 Y97.7 E3234.7 ;horizontal move
G1 X59.8 Y100.1 E3238.1 F933.5 ;horizontal move
G1 X59.0 Y100.0 E3238.9 F1658.0 ;horizontal move
G1 X57.1 Y98.2 E3241.5 F3000.0 ;horizontal move
G1 X52.3 Y93.4 E3248.3 ;horizontal move
G1 X49.9 Y91.1 E3251.6 F973.2 ;horizontal move
G1 Y91.8 E3252.3 F1635.6 ;horizontal move
G1 X51.8 Y93.7 E3255.0 F3000.0 ;horizontal move
G1 X55.6 Y97.6 E3260.4 ;horizontal move
G1 X58.0 Y100.0 E3263.8 F975.6 ;horizontal move
G1 X57.3 E3264.5 F1592.4 ;horizontal move
G1 X55.4 Y98.1 E3267.2 F3000.0 ;horizontal move
G1 X52.3 Y95.2 E3271.5 ;horizontal move
G1 X49.9 Y92.8 E3274.9 F976.3 ;horizontal move
G1 Y93.5 E3275.6 F1592.8 ;horizontal move
G1 X51.8 Y95.4 E3278.2 F3000.0 ;horizontal move
G1 X53.9 Y97.6 E3281.3 ;horizontal move
G1 X56.3 Y100.0 E3284.7 F977.1 ;horizontal move
G1 X55.6 E3285.4 F1593.4 ;horizontal move
G1 X53.7 Y98.1 E3288.1 F3000.0 ;horizontal move
G1 X52.3 Y96.8 E3290.0 ;horizontal move
G1 X49.9 Y94.5 E3293.3 F978.2 ;horizontal move
G1 Y95.2 E3294.0 F1638.6 ;horizontal move
G1 X51.8 Y97.1 E3296.7 F3000.0 ;horizontal move
G1 X52.3 Y97.6 E3297.4 ;horizontal move
G1 X54.6 Y100.0 E3300.7 F976.4 ;horizontal move
G1 X53.9 E3301.4 F1637.5 ;horizontal move
G1 X52.2 Y98.4 E3303.8 F2904.8 ;horizontal move
G1 X49.9 Y96.2 E3306.9 F977.9 ;horizontal move
G1 Y96.9 E3307.6 F1638.4 ;horizontal move
G1 X51.2 Y98.2 E3309.5 F2648.9 ;horizontal move
G1 X52.9 Y100.0 E3312.0 F980.2 ;horizontal move
G1 X52.2 E3312.7 F1639.7 ;horizontal move
G1 X51.3 Y99.2 E3313.9 F2357.1 ;horizontal move
G1 X49.9 Y97.9 E3315.8 F991.9 ;horizontal move
G1 Y98.6 E3316.5 F1602.5 ;horizontal move
G1 X50.4 Y99.1 E3317.2 F2030.1 ;horizontal move
G1 X51.2 Y100.0 E3318.4 F993.2 ;horizontal move
G1 X50.5 E3319.1 F1647.6 ;horizontal move
G1 X50.3 Y99.8 E3319.4 F1857.7 ;horizontal move
G1 X49.9 Y99.5 E3319.9 F1500.0 ;horizontal move
G1 F18000.0; feed for start of next move
G1 E3279.9; extruder retraction
G1 F1500.0; feed for start of next move
G1 X47.4 Y98.2 F3000.0 ;horizontal move
G1 X34.2 Y91.6 ;horizontal move
G1 X31.7 Y90.3 F1500.0 ;horizontal move
G1 F18000.0; feed for start of next move
G1 E3319.9; extruder dwell
G1 F1500.0; feed for start of next move
G1 F3000.0; feed for start of next move
G1 E3324.9; extruder dwell
G1 F1500.0; feed for start of next move
G1 F3000.0; feed for start of next move
G1 E3329.9; extruder dwell
G1 F1500.0; feed for start of next move
G1 X33.2 Y91.8 E3332.0 F2700.0 ;horizontal move
G1 X39.4 Y97.9 E3340.7 ;horizontal move
G1 X40.6 Y99.1 E3342.4 F1850.3 ;horizontal move
G1 X41.0 E3342.8 F1554.2 ;horizontal move
G1 X41.1 Y98.9 E3343.0 F1417.2 ;horizontal move
G1 X41.2 Y99.1 E3343.2 F1567.3 ;horizontal move
G1 X41.6 Y99.5 E3343.8 F1029.6 ;horizontal move
G1 X39.0 E3346.4 F2700.0 ;horizontal move
G1 X24.5 E3360.9 ;horizontal move
G1 X22.4 E3363.0 F1503.8 ;horizontal move
G1 Y97.4 E3365.1 F2700.0 ;horizontal move
G1 Y72.5 E3390.0 ;horizontal move
G1 Y70.4 E3392.1 F1500.0 ;horizontal move
G1 X24.5 E3394.2 F2700.0 ;horizontal move
G1 X39.5 E3409.2 ;horizontal move
G1 X41.6 E3411.3 F1500.0 ;horizontal move
G1 Y72.5 E3413.4 F2700.0 ;horizontal move
G1 Y96.9 E3437.8 ;horizontal move
G1 Y99.5 E3440.4 F987.5 ;horizontal move
G1 X39.7 Y97.7 E3443.0 F2700.0 ;horizontal move
G1 X33.3 Y91.8 E3451.7 ;horizontal move
G1 F18000.0; feed for start of next move
G1 E3411.7; extruder retraction
G1 F1500.0; feed for start of next move
G1 X31.7 Y90.3 F3000.0 ;horizontal move
G1 F1500.0; feed for start of next move
G1 X30.5 Y87.8 F3000.0 ;horizontal move
G1 X27.6 Y81.6 ;horizontal move
G1 X26.4 Y79.1 F1500.0 ;horizontal move
G1 F18000.0; feed for start of next move
G1 E3451.7; extruder dwell
G1 F1500.0; feed for start of next move
G1 F3000.0; feed for start of next move
G1 E3456.7; extruder dwell
G1 F1500.0; feed for start of next move
G1 F3000.0; feed for start of next move
G1 E3461.7; extruder dwell
G1 F1500.0; feed for start of next move
G1 X27.9 Y80.6 E3463.8 F2700.0 ;horizontal move
G1 X29.0 Y81.8 E3465.5 ;horizontal move
G1 X30.2 Y83.0 E3467.2 F1747.2 ;horizontal move
G1 X31.2 Y82.4 E3468.3 F2402.0 ;horizontal move
G1 X31.8 E3468.9 F2700.0 ;horizontal move
G1 X31.9 Y82.3 E3469.1 ;horizontal move
G1 X32.1 E3469.3 F2629.8 ;horizontal move
G1 X32.3 Y82.4 E3469.5 F2700.0 ;horizontal move
G1 X32.7 E3469.9 ;horizontal move
G1 X32.9 Y82.5 E3470.1 F2576.8 ;horizontal move
G1 X33.2 Y82.7 E3470.5 F2700.0 ;horizontal move
G1 X33.8 Y83.2 E3471.3 ;horizontal move
G1 X34.1 Y83.4 E3471.6 F2562.0 ;horizontal move
G1 X34.2 Y83.7 E3471.9 F2700.0 ;horizontal move
G1 X34.5 Y84.3 E3472.6 ;horizontal move
G1 X34.6 Y84.5 E3472.8 F2624.8 ;horizontal move
G1 Y84.6 E3472.9 F2700.0 ;horizontal move
G1 Y85.1 E3473.4 ;horizontal move
G1 Y85.4 E3473.7 F2549.1 ;horizontal move
G1 X34.5 Y85.7 E3474.0 F2700.0 ;horizontal move
G1 X34.2 Y86.4 E3474.8 ;horizontal move
G1 X34.0 Y86.7 E3475.2 F2544.0 ;horizontal move
G1 X33.7 Y86.9 E3475.5 F2700.0 ;horizontal move
G1 X33.1 Y87.4 E3476.3 ;horizontal move
G1 X32.8 Y87.5 E3476.6 F2570.5 ;horizontal move
G1 X32.5 Y87.6 E3476.9 F2700.0 ;horizontal move
G1 X32.1 E3477.3 ;horizontal move
G1 X32.0 Y87.7 E3477.5 F2657.7 ;horizontal move
G1 X31.9 Y87.6 E3477.6 F2700.0 ;horizontal move
G1 X31.4 E3478.1 ;horizontal move
G1 X31.0 Y87.5 E3478.5 F2510.0 ;horizontal move
G1 X30.7 Y87.3 E3478.9 F2700.0 ;horizontal move
G1 X30.0 Y86.7 E3479.8 ;horizontal move
G1 X29.9 Y86.6 E3480.0 F2643.0 ;horizontal move
G1 Y86.5 E3480.1 F2700.0 ;horizontal move
G1 X29.6 Y86.2 E3480.5 ;horizontal move
G1 X29.5 Y86.0 E3480.7 F2593.3 ;horizontal move
G1 Y85.7 E3481.0 F2700.0 ;horizontal move
G1 X29.4 Y85.2 E3481.5 ;horizontal move
G1 X29.3 Y84.7 E3482.0 F2498.5 ;horizontal move
G1 X29.4 Y84.5 E3482.2 F2605.4 ;horizontal move
G1 X30.0 Y83.3 E3483.6 F1913.8 ;horizontal move
G1 X30.2 Y83.0 E3483.9 F1655.5 ;horizontal move
G1 X28.9 Y81.7 E3485.8 F2700.0 ;horizontal move
G1 X27.9 Y80.6 E3487.3 ;horizontal move
G1 F18000.0; feed for start of next move
G1 E3447.3; extruder retraction
G1 F1500.0; feed for start of next move
G1 X26.4 Y79.1 F3000.0 ;horizontal move
G1 F1500.0; feed for start of next move
G1 X27.5 Y81.7 F3000.0 ;horizontal move
G1 X27.8 Y82.3 ;horizontal move
G1 X28.9 Y84.9 F1500.0 ;horizontal move
G1 F18000.0; feed for start of next move
G1 E3487.3; extruder dwell
G1 F1500.0; feed for start of next move
G1 F3000.0; feed for start of next move
G1 E3492.3; extruder dwell
G1 F1500.0; feed for start of next move
G1 F3000.0; feed for start of next move
G1 E3497.3; extruder dwell
G1 F1500.0; feed for start of next move
G1 X26.9 Y82.9 E3500.1 F3000.0 ;horizontal move
G1 X24.8 Y80.8 E3503.1 ;horizontal move
G1 X22.9 Y78.9 E3505.8 F1638.2 ;horizontal move
G1 Y78.2 E3506.5 F977.6 ;horizontal move
G1 X25.3 Y80.5 E3509.8 F3000.0 ;horizontal move
G1 X26.8 Y81.9 E3511.8 ;horizontal move
G1 X29.0 Y84.1 E3514.9 F1199.9 ;horizontal move
G1 X29.2 Y83.6 E3515.5 F1634.0 ;horizontal move
G1 X27.4 Y81.8 E3518.0 F3000.0 ;horizontal move
G1 X24.8 Y79.1 E3521.8 ;horizontal move
G1 X22.9 Y77.2 E3524.5 F1636.4 ;horizontal move
G1 Y76.5 E3525.2 F974.5 ;horizontal move
G1 X25.3 Y78.9 E3528.6 F3000.0 ;horizontal move
G1 X27.6 Y81.1 E3531.7 ;horizontal move
G1 X29.6 Y83.0 E3534.5 F1513.6 ;horizontal move
G1 X29.8 Y82.9 E3534.7 F1705.9 ;horizontal move
G1 X29.9 Y82.7 E3534.9 F1519.0 ;horizontal move
G1 X28.2 Y80.9 E3537.4 F2883.1 ;horizontal move
G1 X26.4 Y79.1 E3540.0 F1500.0 ;horizontal move
G1 F18000.0; feed for start of next move
G1 E3500.0; extruder retraction
G1 F1500.0; feed for start of next move
G1 F18000.0; feed for start of next move
G1 E3540.0; extruder dwell
G1 F1500.0; feed for start of next move
G1 F3000.0; feed for start of next move
G1 E3545.0; extruder dwell
G1 F1500.0; feed for start of next move
G1 F3000.0; feed for start of next move
G1 E3550.0; extruder dwell
G1 F1500.0; feed for start of next move
G1 X24.6 Y77.2 E3552.6 F2902.9 ;horizontal move
G1 X22.9 Y75.5 E3555.0 F1592.7 ;horizontal move
G1 Y74.8 E3555.7 F976.0 ;horizontal move
G1 X25.3 Y77.2 E3559.1 F3000.0 ;horizontal move
G1 X28.7 Y80.5 E3563.8 ;horizontal move
G1 X30.5 Y82.3 E3566.4 F1696.7 ;horizontal move
G1 X31.0 Y82.0 E3567.0 F1310.7 ;horizontal move
G1 X28.8 Y79.9 E3570.0 F3000.0 ;horizontal move
G1 X24.8 Y75.7 E3575.8 ;horizontal move
G1 X22.9 Y73.8 E3578.5 F1592.1 ;horizontal move
G1 Y73.1 E3579.2 F975.1 ;horizontal move
G1 X25.3 Y75.5 E3582.6 F3000.0 ;horizontal move
G1 X29.9 Y80.0 E3589.0 ;horizontal move
G1 X31.8 Y81.8 E3591.6 F1658.0 ;horizontal move
G1 X32.6 Y81.9 E3592.4 F933.6 ;horizontal move
G1 X30.2 Y79.5 E3595.8 F3000.0 ;horizontal move
G1 X24.8 Y74.0 E3603.5 ;horizontal move
G1 X22.9 Y72.1 E3606.2 F1634.5 ;horizontal move
G1 Y71.4 E3606.9 F971.4 ;horizontal move
G1 X25.3 Y73.8 E3610.3 F3000.0 ;horizontal move
G1 X38.7 Y87.1 E3629.2 ;horizontal move
G1 X41.1 Y89.5 E3632.6 F971.4 ;horizontal move
G1 Y88.7 E3633.4 F1634.5 ;horizontal move
G1 X39.2 Y86.9 E3636.0 F3000.0 ;horizontal move
G1 X25.8 Y73.3 E3655.1 ;horizontal move
G1 X23.4 Y70.9 E3658.5 F971.5 ;horizontal move
G1 X24.1 E3659.2 F1634.5 ;horizontal move
G1 X26.0 Y72.8 E3661.9 F3000.0 ;horizontal move
G1 X38.7 Y85.4 E3679.8 ;horizontal move
G1 X41.1 Y87.7 E3683.1 F972.5 ;horizontal move
G1 Y87.1 E3683.7 F1590.5 ;horizontal move
G1 X39.2 Y85.1 E3686.5 F3000.0 ;horizontal move
G1 X27.5 Y73.3 E3703.1 ;horizontal move
G1 X25.1 Y70.9 E3706.5 F972.7 ;horizontal move
G1 X25.8 E3707.2 F1590.6 ;horizontal move
G1 X27.7 Y72.8 E3709.9 F3000.0 ;horizontal move
G1 X38.7 Y83.7 E3725.3 ;horizontal move
G1 X41.1 Y86.0 E3728.7 F972.8 ;horizontal move
G1 Y85.4 E3729.3 F1590.7 ;horizontal move
G1 X39.2 Y83.5 E3732.0 F3000.0 ;horizontal move
G1 X29.2 Y73.3 E3746.2 ;horizontal move
G1 X26.8 Y70.9 E3749.6 F973.0 ;horizontal move
G1 X27.5 E3750.3 F1635.5 ;horizontal move
G1 X29.4 Y72.8 E3753.0 F3000.0 ;horizontal move
G1 X38.7 Y82.0 E3766.1 ;horizontal move
G1 X41.1 Y84.4 E3769.5 F972.0 ;horizontal move
G1 Y83.6 E3770.3 F1634.9 ;horizontal move
G1 X39.2 Y81.8 E3772.9 F3000.0 ;horizontal move
G1 X30.9 Y73.3 E3784.8 ;horizontal move
G1 X28.5 Y70.9 E3788.2 F972.2 ;horizontal move
G1 X29.2 E3788.9 F1635.0 ;horizontal move
G1 X31.1 Y72.8 E3791.6 F3000.0 ;horizontal move
G1 X38.7 Y80.3 E3802.2 ;horizontal move
G1 X41.1 Y82.7 E3805.6 F972.4 ;horizontal move
G1 Y82.0 E3806.3 F1635.1 ;horizontal move
G1 X39.3 Y80.1 E3809.0 F3000.0 ;horizontal move
G1 X32.6 Y73.3 E3818.5 ;horizontal move
G1 X30.2 Y70.9 E3821.9 F974.0 ;horizontal move
G1 X30.9 E3822.6 F1591.5 ;horizontal move
G1 X32.8 Y72.8 E3825.3 F3000.0 ;horizontal move
G1 X38.7 Y78.6 E3833.6 ;horizontal move
G1 X41.1 Y80.9 E3836.9 F974.4 ;horizontal move
G1 Y80.3 E3837.5 F1591.7 ;horizontal move
G1 X39.2 Y78.4 E3840.2 F3000.0 ;horizontal move
G1 X34.3 Y73.3 E3847.2 ;horizontal move
G1 X31.9 Y70.9 E3850.6 F974.8 ;horizontal move
G1 X32.6 E3851.3 F1592.0 ;horizontal move
G1 X34.5 Y72.8 E3854.0 F3000.0 ;horizontal move
G1 X38.7 Y76.9 E3859.9 ;horizontal move
G1 X41.1 Y79.3 E3863.3 F975.4 ;horizontal move
G1 Y78.5 E3864.1 F1636.9 ;horizontal move
G1 X39.3 Y76.7 E3866.6 F3000.0 ;horizontal move
G1 X36.0 Y73.3 E3871.4 ;horizontal move
G1 X33.6 Y70.9 E3874.8 F973.9 ;horizontal move
G1 X34.3 E3875.5 F1636.0 ;horizontal move
G1 X36.2 Y72.8 E3878.2 F3000.0 ;horizontal move
G1 X38.7 Y75.2 E3881.6 ;horizontal move
G1 X41.1 Y77.6 E3885.0 F974.4 ;horizontal move
G1 Y76.9 E3885.7 F1636.3 ;horizontal move
G1 X39.3 Y75.0 E3888.3 F3000.0 ;horizontal move
G1 X37.6 Y73.3 E3890.7 ;horizontal move
G1 X35.3 Y70.9 E3894.1 F975.1 ;horizontal move
G1 X36.0 E3894.8 F1636.7 ;horizontal move
G1 X37.9 Y72.7 E3897.4 F3000.0 ;horizontal move
G1 X38.7 Y73.5 E3898.5 ;horizontal move
G1 X41.1 Y75.8 E3901.8 F979.3 ;horizontal move
G1 Y75.2 E3902.4 F1594.7 ;horizontal move
G1 X39.3 Y73.3 E3905.0 F2971.7 ;horizontal move
G1 X37.0 Y70.9 E3908.4 F981.2 ;horizontal move
G1 X37.7 E3909.1 F1595.9 ;horizontal move
G1 X39.2 Y72.3 E3911.1 F2722.3 ;horizontal move
G1 X41.1 Y74.2 E3913.8 F984.2 ;horizontal move
G1 Y73.5 E3914.5 F1597.7 ;horizontal move
G1 X40.1 Y72.5 E3915.9 F2448.3 ;horizontal move
G1 X38.7 Y70.9 E3918.1 F989.2 ;horizontal move
G1 X39.4 E3918.8 F1645.1 ;horizontal move
G1 X40.0 Y71.5 E3919.6 F2143.4 ;horizontal move
G1 X41.1 Y72.5 E3921.1 F989.7 ;horizontal move
G1 Y71.8 E3921.8 F1645.4 ;horizontal move
G1 X40.8 Y71.4 E3922.3 F1951.0 ;horizontal move
G1 X40.4 Y70.9 E3922.9 F1500.0 ;horizontal move
G1 F18000.0; feed for start of next move
G1 E3882.9; extruder retraction
G1 F1500.0; feed for start of next move
G1 X39.3 Y73.5 F3000.0 ;horizontal move
G1 X36.1 Y81.6 ;horizontal move
G1 X35.0 Y84.2 F1500.0 ;horizontal move
G1 F18000.0; feed for start of next move
G1 E3922.9; extruder dwell
G1 F1500.0; feed for start of next move
G1 F3000.0; feed for start of next move
G1 E3927.9; extruder dwell
G1 F1500.0; feed for start of next move
G1 F3000.0; feed for start of next move
G1 E3932.9; extruder dwell
G1 F1500.0; feed for start of next move
G1 X36.9 Y86.2 E3935.7 F3000.0 ;horizontal move
G1 X39.3 Y88.5 E3939.0 ;horizontal move
G1 X41.1 Y90.4 E3941.6 F1635.1 ;horizontal move
G1 Y91.1 E3942.3 F972.3 ;horizontal move
G1 X38.7 Y88.8 E3945.7 F3000.0 ;horizontal move
G1 X37.1 Y87.2 E3947.9 ;horizontal move
G1 X35.1 Y85.2 E3950.7 F1500.0 ;horizontal move
G1 F18000.0; feed for start of next move
G1 E3910.7; extruder retraction
G1 F1500.0; feed for start of next move
G1 Y85.6 F1760.3 ;horizontal move
G1 X35.0 Y85.9 F1500.0 ;horizontal move
G1 F18000.0; feed for start of next move
G1 E3950.7; extruder dwell
G1 F1500.0; feed for start of next move
G1 F3000.0; feed for start of next move
G1 E3955.7; extruder dwell
G1 F1500.0; feed for start of next move
G1 F3000.0; feed for start of next move
G1 E3960.7; extruder dwell
G1 F1500.0; feed for start of next move
G1 X36.9 Y87.9 E3963.5 F3000.0 ;horizontal move
G1 X39.2 Y90.2 E3966.8 ;horizontal move
G1 X41.1 Y92.2 E3969.5 F1591.9 ;horizontal move
G1 Y92.8 E3970.1 F974.7 ;horizontal move
G1 X38.7 Y90.5 E3973.4 F3000.0 ;horizontal move
G1 X36.7 Y88.5 E3976.3 ;horizontal move
G1 X34.7 Y86.5 E3979.1 F1500.0 ;horizontal move
G1 F18000.0; feed for start of next move
G1 E3939.1; extruder retraction
G1 F1500.0; feed for start of next move
G1 X34.6 Y86.8 F1717.5 ;horizontal move
G1 X34.4 Y87.0 F1500.0 ;horizontal move
G1 F18000.0; feed for start of next move
G1 E3979.1; extruder dwell
G1 F1500.0; feed for start of next move
G1 F3000.0; feed for start of next move
G1 E3984.1; extruder dwell
G1 F1500.0; feed for start of next move
G1 F3000.0; feed for start of next move
G1 E3989.1; extruder dwell
G1 F1500.0; feed for start of next move
G1 X36.4 Y89.0 E3991.9 F3000.0 ;horizontal move
G1 X39.3 Y92.0 E3996.1 ;horizontal move
G1 X41.1 Y93.8 E3998.6 F1634.8 ;horizontal move
G1 Y94.6 E3999.4 F971.9 ;horizontal move
G1 X38.7 Y92.2 E4002.8 F3000.0 ;horizontal move
G1 X35.7 Y89.2 E4007.1 ;horizontal move
G1 X33.9 Y87.4 E4009.6 F1752.8 ;horizontal move
G1 X33.5 Y87.7 E4010.1 F1385.3 ;horizontal move
G1 X35.5 Y89.8 E4013.0 F3000.0 ;horizontal move
G1 X39.3 Y93.6 E4018.4 ;horizontal move
G1 X41.1 Y95.5 E4021.0 F1635.8 ;horizontal move
G1 Y96.2 E4021.7 F973.5 ;horizontal move
G1 X38.7 Y93.9 E4025.0 F3000.0 ;horizontal move
G1 X34.6 Y89.9 E4030.8 ;horizontal move
G1 X32.8 Y88.0 E4033.4 F1630.1 ;horizontal move
G1 X32.2 Y88.1 E4034.0 F1090.2 ;horizontal move
G1 X34.4 Y90.5 E4037.2 F3000.0 ;horizontal move
G1 X39.2 Y95.3 E4044.0 ;horizontal move
G1 X41.1 Y97.3 E4046.8 F1591.7 ;horizontal move
G1 Y97.9 E4047.4 F974.5 ;horizontal move
G1 X38.7 Y95.6 E4050.7 F3000.0 ;horizontal move
G1 X31.1 Y88.1 E4061.4 ;horizontal move
G1 X31.0 Y88.0 E4061.5 F2970.5 ;horizontal move
G1 X30.0 Y87.4 E4062.7 F3000.0 ;horizontal move
G1 X29.6 Y87.1 E4063.2 F2808.8 ;horizontal move
G1 X29.4 Y86.7 E4063.7 F3000.0 ;horizontal move
G1 X29.1 Y86.0 E4064.4 ;horizontal move
G1 X29.0 Y85.9 E4064.6 F2927.2 ;horizontal move
G1 X28.9 Y85.7 E4064.8 F3000.0 ;horizontal move
G1 X25.3 Y82.3 E4069.7 ;horizontal move
G1 X22.9 Y79.9 E4073.1 F975.0 ;horizontal move
G1 Y80.6 E4073.8 F1592.1 ;horizontal move
G1 X24.8 Y82.5 E4076.5 F3000.0 ;horizontal move
G1 X39.1 Y96.9 E4096.8 ;horizontal move
G1 X41.1 Y98.9 E4099.6 F1500.0 ;horizontal move
G1 F18000.0; feed for start of next move
G1 E4059.6; extruder retraction
G1 F1500.0; feed for start of next move
G1 X39.0 Y97.0 F3000.0 ;horizontal move
G1 X33.8 Y92.2 ;horizontal move
G1 X31.7 Y90.3 F1500.0 ;horizontal move
G1 F18000.0; feed for start of next move
G1 E4099.6; extruder dwell
G1 F1500.0; feed for start of next move
G1 F3000.0; feed for start of next move
G1 E4104.6; extruder dwell
G1 F1500.0; feed for start of next move
G1 F3000.0; feed for start of next move
G1 E4109.6; extruder dwell
G1 F1500.0; feed for start of next move
G1 X29.7 Y88.4 E4112.4 F3000.0 ;horizontal move
G1 X25.3 Y84.0 E4118.6 ;horizontal move
G1 X22.9 Y81.6 E4122.0 F972.4 ;horizontal move
G1 Y82.3 E4122.7 F1635.1 ;horizontal move
G1 X24.8 Y84.2 E4125.4 F3000.0 ;horizontal move
G1 X37.2 Y96.7 E4143.0 ;horizontal move
G1 X39.5 Y99.1 E4146.3 F971.6 ;horizontal move
G1 X38.8 E4147.0 F1634.6 ;horizontal move
G1 X36.9 Y97.2 E4149.7 F3000.0 ;horizontal move
G1 X25.3 Y85.6 E4166.1 ;horizontal move
G1 X22.9 Y83.3 E4169.4 F971.7 ;horizontal move
G1 Y84.0 E4170.1 F1634.7 ;horizontal move
G1 X24.8 Y85.9 E4172.8 F3000.0 ;horizontal move
G1 X35.5 Y96.7 E4188.0 ;horizontal move
G1 X37.9 Y99.1 E4191.4 F971.8 ;horizontal move
G1 X37.1 E4192.2 F1634.7 ;horizontal move
G1 X35.3 Y97.2 E4194.8 F3000.0 ;horizontal move
G1 X25.3 Y87.4 E4208.8 ;horizontal move
G1 X22.9 Y85.0 E4212.2 F973.1 ;horizontal move
G1 Y85.7 E4212.9 F1590.9 ;horizontal move
G1 X24.8 Y87.6 E4215.6 F3000.0 ;horizontal move
G1 X33.8 Y96.7 E4228.4 ;horizontal move
G1 X36.1 Y99.1 E4231.7 F973.3 ;horizontal move
G1 X35.5 E4232.3 F1591.0 ;horizontal move
G1 X33.5 Y97.2 E4235.1 F3000.0 ;horizontal move
G1 X25.3 Y89.1 E4246.6 ;horizontal move
G1 X22.9 Y86.7 E4250.0 F973.5 ;horizontal move
G1 Y87.4 E4250.7 F1591.1 ;horizontal move
G1 X24.8 Y89.3 E4253.4 F3000.0 ;horizontal move
G1 X32.1 Y96.7 E4263.8 ;horizontal move
G1 X34.4 Y99.1 E4267.1 F973.8 ;horizontal move
G1 X33.7 E4267.8 F1635.9 ;horizontal move
G1 X31.8 Y97.2 E4270.5 F3000.0 ;horizontal move
G1 X25.3 Y90.7 E4279.7 ;horizontal move
G1 X22.9 Y88.4 E4283.0 F972.6 ;horizontal move
G1 Y89.1 E4283.7 F1635.2 ;horizontal move
G1 X24.8 Y91.0 E4286.4 F3000.0 ;horizontal move
G1 X30.4 Y96.7 E4294.4 ;horizontal move
G1 X32.8 Y99.1 E4297.8 F933.5 ;horizontal move
G1 X32.0 Y99.0 E4298.6 F1658.0 ;horizontal move
G1 X30.1 Y97.2 E4301.2 F3000.0 ;horizontal move
G1 X25.3 Y92.4 E4308.0 ;horizontal move
G1 X22.9 Y90.1 E4311.3 F973.2 ;horizontal move
G1 Y90.8 E4312.0 F1635.6 ;horizontal move
G1 X24.8 Y92.7 E4314.7 F3000.0 ;horizontal move
G1 X28.6 Y96.6 E4320.2 ;horizontal move
G1 X31.0 Y99.0 E4323.6 F975.6 ;horizontal move
G1 X30.3 E4324.3 F1592.4 ;horizontal move
G1 X28.4 Y97.1 E4327.0 F3000.0 ;horizontal move
G1 X25.3 Y94.1 E4331.3 ;horizontal move
G1 X22.9 Y91.8 E4334.6 F976.3 ;horizontal move
G1 Y92.5 E4335.3 F1592.8 ;horizontal move
G1 X24.8 Y94.4 E4338.0 F3000.0 ;horizontal move
G1 X26.9 Y96.6 E4341.0 ;horizontal move
G1 X29.3 Y99.0 E4344.4 F977.1 ;horizontal move
G1 X28.6 E4345.1 F1593.4 ;horizontal move
G1 X26.7 Y97.1 E4347.8 F3000.0 ;horizontal move
G1 X25.3 Y95.8 E4349.7 ;horizontal move
G1 X22.9 Y93.5 E4353.0 F978.2 ;horizontal move
G1 Y94.2 E4353.7 F1638.6 ;horizontal move
G1 X24.8 Y96.1 E4356.4 F3000.0 ;horizontal move
G1 X25.3 Y96.6 E4357.1 ;horizontal move
G1 X27.6 Y99.0 E4360.5 F976.4 ;horizontal move
G1 X26.9 E4361.2 F1637.5 ;horizontal move
G1 X25.2 Y97.3 E4363.6 F2904.8 ;horizontal move
G1 X22.9 Y95.2 E4366.7 F977.9 ;horizontal move
G1 Y95.9 E4367.4 F1638.4 ;horizontal move
G1 X24.2 Y97.2 E4369.2 F2648.9 ;horizontal move
G1 X25.9 Y99.0 E4371.7 F980.2 ;horizontal move
G1 X25.2 E4372.4 F1639.7 ;horizontal move
G1 X24.3 Y98.2 E4373.6 F2357.1 ;horizontal move
G1 X22.9 Y96.9 E4375.5 F991.9 ;horizontal move
G1 Y97.6 E4376.2 F1602.5 ;horizontal move
G1 X23.4 Y98.0 E4376.8 F2030.1 ;horizontal move
G1 X24.2 Y99.0 E4378.1 F993.2 ;horizontal move
G1 X23.5 E4378.8 F1647.6 ;horizontal move
G1 X23.3 Y98.8 E4379.1 F1857.7 ;horizontal move
G1 X22.9 Y98.5 E4379.6 F1500.0 ;horizontal move
G1 F18000.0; feed for start of next move
G1 E4339.6; extruder retraction
G1 F1500.0; feed for start of next move
M106 ;cooler on
G28 X0 ;set x 0
G28 Y0 ;set x 0
G92 E0 ;zero the extruded length
;#!LAYER: 2/66
M107 ;cooler off
G4 P20 ;delay
G1 F5.0; feed for start of next move
G1 Z0.35 F30.4 ;z move
G1 Z0.5 F5.0 ;z move
G1 F1500.0; feed for start of next move
G1 X1.3 Y2.5 F3000.0 ;horizontal move
G1 X16.7 Y30.5 ;horizontal move
G1 X18.0 Y33.0 F1500.0 ;horizontal move
G1 F18000.0; feed for start of next move
G1 E40.0; extruder dwell
G1 F1500.0; feed for start of next move
G1 F3000.0; feed for start of next move
G1 E80.0; extruder dwell
G1 F1500.0; feed for start of next move
G1 F3000.0; feed for start of next move
G1 E90.0; extruder dwell
G1 F1500.0; feed for start of next move
G1 X17.4 Y35.8 E92.9 F3000.0 ;horizontal move
G1 X16.7 Y39.6 E96.7 ;horizontal move
G1 X16.0 Y43.0 E100.2 F764.6 ;horizontal move
G1 Y39.5 E103.7 F3000.0 ;horizontal move
G1 Y33.8 E109.4 ;horizontal move
G1 Y31.0 E112.2 F1500.0 ;horizontal move
G1 X18.8 E115.0 F3000.0 ;horizontal move
G1 X35.2 E131.4 ;horizontal move
G1 X38.0 E134.2 F1500.0 ;horizontal move
G1 F18000.0; feed for start of next move
G1 E94.2; extruder retraction
G1 F1500.0; feed for start of next move
G1 X37.7 Y33.8 F3000.0 ;horizontal move
G1 X36.8 Y42.1 ;horizontal move
G1 X36.5 Y44.9 F1500.0 ;horizontal move
G1 F18000.0; feed for start of next move
G1 E134.2; extruder dwell
G1 F1500.0; feed for start of next move
G1 F3000.0; feed for start of next move
G1 E139.2; extruder dwell
G1 F1500.0; feed for start of next move
G1 F3000.0; feed for start of next move
G1 E144.2; extruder dwell
G1 F1500.0; feed for start of next move
G1 X35.0 Y46.4 E146.3 F2700.0 ;horizontal move
G1 X34.5 Y47.0 E147.1 ;horizontal move
G1 X32.9 Y48.6 E149.4 F1441.4 ;horizontal move
G1 X33.3 Y48.9 E149.9 F1782.2 ;horizontal move
G1 X33.1 Y49.4 E150.4 F2106.7 ;horizontal move
G1 X33.5 Y50.0 E151.1 F2513.1 ;horizontal move
G1 Y50.4 E151.5 F2700.0 ;horizontal move
G1 X33.6 Y50.9 E152.0 ;horizontal move
G1 Y51.0 E152.1 F2672.4 ;horizontal move
G1 Y51.1 E152.2 F2700.0 ;horizontal move
G1 Y51.5 E152.6 ;horizontal move
G1 X33.5 Y51.7 E152.9 F2607.0 ;horizontal move
G1 X33.4 Y51.8 E153.0 F2700.0 ;horizontal move
G1 X33.1 Y52.6 E153.9 ;horizontal move
G1 X33.0 Y52.7 E154.0 F2646.9 ;horizontal move
G1 X32.9 Y52.8 E154.1 F2700.0 ;horizontal move
G1 X32.7 Y53.0 E154.4 ;horizontal move
G1 X32.6 Y53.1 E154.6 F2649.4 ;horizontal move
G1 X32.5 Y53.2 E154.7 F2700.0 ;horizontal move
G1 X31.9 Y53.5 E155.4 ;horizontal move
G1 X31.8 E155.5 F2643.3 ;horizontal move
G1 X31.7 E155.6 F2700.0 ;horizontal move
G1 X31.3 Y53.6 E156.0 ;horizontal move
G1 X30.8 Y53.7 E156.5 F2490.5 ;horizontal move
G1 X30.4 Y53.5 E156.9 F2700.0 ;horizontal move
G1 X29.6 Y53.1 E157.8 ;horizontal move
G1 X29.3 Y53.0 E158.2 F2581.8 ;horizontal move
G1 X29.2 Y52.8 E158.4 F2700.0 ;horizontal move
G1 X28.8 Y52.4 E158.9 ;horizontal move
G1 X28.6 Y52.2 E159.2 F2556.2 ;horizontal move
G1 Y51.9 E159.5 F2700.0 ;horizontal move
G1 X28.4 Y51.2 E160.3 ;horizontal move
G1 X28.3 Y50.8 E160.7 F2531.8 ;horizontal move
G1 X28.4 Y50.5 E161.0 F2700.0 ;horizontal move
G1 X28.6 Y49.9 E161.6 ;horizontal move
G1 X28.7 Y49.7 E161.8 F2611.3 ;horizontal move
G1 X28.8 Y49.6 E162.0 F2700.0 ;horizontal move
G1 X29.3 Y49.0 E162.8 ;horizontal move
G1 X29.4 Y48.9 E162.9 F2619.6 ;horizontal move
G1 X29.6 Y48.8 E163.1 F2700.0 ;horizontal move
G1 X30.1 Y48.5 E163.7 ;horizontal move
G1 X30.2 E163.8 F2647.6 ;horizontal move
G1 X30.3 E163.9 F2700.0 ;horizontal move
G1 X30.8 Y48.4 E164.4 ;horizontal move
G1 X31.1 Y48.3 E164.7 F2562.5 ;horizontal move
G1 X31.3 Y48.4 E165.0 F2672.8 ;horizontal move
G1 X32.1 Y48.6 E165.8 F2273.8 ;horizontal move
G1 X33.1 Y49.4 E167.1 F1483.7 ;horizontal move
G1 X34.4 Y47.7 E169.2 F2700.0 ;horizontal move
G1 X35.2 Y46.6 E170.6 ;horizontal move
G1 F18000.0; feed for start of next move
G1 E130.6; extruder retraction
G1 F1500.0; feed for start of next move
G1 X36.5 Y44.9 F3000.0 ;horizontal move
G1 F1500.0; feed for start of next move
G1 X35.2 Y47.4 F3000.0 ;horizontal move
G1 X32.3 Y53.0 ;horizontal move
G1 X31.0 Y55.5 F1500.0 ;horizontal move
G1 F18000.0; feed for start of next move
G1 E170.6; extruder dwell
G1 F1500.0; feed for start of next move
G1 F3000.0; feed for start of next move
G1 E175.6; extruder dwell
G1 F1500.0; feed for start of next move
G1 F3000.0; feed for start of next move
G1 E180.6; extruder dwell
G1 F1500.0; feed for start of next move
G1 X29.5 Y57.0 E182.7 F2700.0 ;horizontal move
G1 X23.0 Y63.5 E191.9 ;horizontal move
G1 X22.0 Y64.6 E193.4 F1904.3 ;horizontal move
G1 Y65.0 E193.8 F1618.2 ;horizontal move
G1 X21.5 Y65.6 E194.5 F940.5 ;horizontal move
G1 Y62.9 E197.2 F2700.0 ;horizontal move
G1 X21.4 Y38.5 E221.6 ;horizontal move
G1 Y36.4 E223.7 F1496.1 ;horizontal move
G1 X23.5 E225.8 F2700.0 ;horizontal move
G1 X38.5 Y36.5 E240.8 ;horizontal move
G1 X40.6 E242.9 F1503.8 ;horizontal move
G1 Y38.6 E245.0 F2700.0 ;horizontal move
G1 Y63.5 E269.9 ;horizontal move
G1 Y65.6 E272.0 F1500.0 ;horizontal move
G1 X38.5 E274.1 F2700.0 ;horizontal move
G1 X24.1 E288.5 ;horizontal move
G1 X21.5 E291.1 F984.5 ;horizontal move
G1 X23.3 Y63.7 E293.8 F2700.0 ;horizontal move
G1 X29.6 Y57.0 E303.0 ;horizontal move
G1 F18000.0; feed for start of next move
G1 E263.0; extruder retraction
G1 F1500.0; feed for start of next move
G1 X31.0 Y55.5 F3000.0 ;horizontal move
G1 F1500.0; feed for start of next move
G1 X29.1 Y57.5 F3000.0 ;horizontal move
G1 X23.9 Y63.0 ;horizontal move
G1 X22.0 Y65.0 F1500.0 ;horizontal move
G1 F18000.0; feed for start of next move
G1 E303.0; extruder dwell
G1 F1500.0; feed for start of next move
G1 F3000.0; feed for start of next move
G1 E308.0; extruder dwell
G1 F1500.0; feed for start of next move
G1 F3000.0; feed for start of next move
G1 E313.0; extruder dwell
G1 F1500.0; feed for start of next move
G1 X22.2 Y65.1 E313.2 F1686.3 ;horizontal move
G1 X24.0 Y63.3 E315.7 F3000.0 ;horizontal move
G1 X37.7 Y49.7 E335.0 ;horizontal move
G1 X40.1 Y47.3 E338.4 F971.5 ;horizontal move
G1 Y48.1 E339.2 F1634.5 ;horizontal move
G1 X38.2 Y49.9 E341.8 F3000.0 ;horizontal move
G1 X25.5 Y62.7 E359.9 ;horizontal move
G1 X23.2 Y65.1 E363.2 F971.5 ;horizontal move
G1 X23.9 E363.9 F1634.6 ;horizontal move
G1 X25.8 Y63.2 E366.6 F3000.0 ;horizontal move
G1 X37.7 Y51.4 E383.3 ;horizontal move
G1 X40.1 Y49.1 E386.7 F972.6 ;horizontal move
G1 Y49.7 E387.3 F1590.6 ;horizontal move
G1 X38.2 Y51.7 E390.0 F3000.0 ;horizontal move
G1 X27.3 Y62.7 E405.5 ;horizontal move
G1 X24.9 Y65.1 E408.9 F972.8 ;horizontal move
G1 X25.6 E409.6 F1590.7 ;horizontal move
G1 X27.5 Y63.2 E412.3 F3000.0 ;horizontal move
G1 X37.7 Y53.1 E426.6 ;horizontal move
G1 X40.1 Y50.8 E430.0 F973.0 ;horizontal move
G1 Y51.5 E430.7 F1635.5 ;horizontal move
G1 X38.2 Y53.4 E433.4 F3000.0 ;horizontal move
G1 X28.9 Y62.7 E446.5 ;horizontal move
G1 X26.6 Y65.1 E449.8 F972.0 ;horizontal move
G1 X27.3 E450.5 F1634.9 ;horizontal move
G1 X29.2 Y63.2 E453.2 F3000.0 ;horizontal move
G1 X37.7 Y54.8 E465.2 ;horizontal move
G1 X40.1 Y52.4 E468.6 F972.2 ;horizontal move
G1 Y53.2 E469.4 F1635.0 ;horizontal move
G1 X38.2 Y55.0 E472.0 F3000.0 ;horizontal move
G1 X30.6 Y62.7 E482.8 ;horizontal move
G1 X28.3 Y65.1 E486.1 F972.4 ;horizontal move
G1 X29.0 E486.8 F1635.1 ;horizontal move
G1 X30.9 Y63.2 E489.5 F3000.0 ;horizontal move
G1 X37.7 Y56.5 E499.1 ;horizontal move
G1 X40.1 Y54.1 E502.5 F972.6 ;horizontal move
G1 Y54.8 E503.2 F1635.2 ;horizontal move
G1 X38.2 Y56.7 E505.8 F3000.0 ;horizontal move
G1 X32.4 Y62.7 E514.2 ;horizontal move
G1 X30.0 Y65.1 E517.6 F974.4 ;horizontal move
G1 X30.7 E518.3 F1591.7 ;horizontal move
G1 X32.6 Y63.2 E521.0 F3000.0 ;horizontal move
G1 X37.7 Y58.2 E528.1 ;horizontal move
G1 X40.1 Y55.9 E531.4 F974.8 ;horizontal move
G1 Y56.5 E532.0 F1591.9 ;horizontal move
G1 X38.2 Y58.4 E534.7 F3000.0 ;horizontal move
G1 X34.0 Y62.7 E540.7 ;horizontal move
G1 X31.7 Y65.1 E544.1 F975.3 ;horizontal move
G1 X32.4 E544.8 F1636.8 ;horizontal move
G1 X34.3 Y63.3 E547.4 F3000.0 ;horizontal move
G1 X37.7 Y59.9 E552.2 ;horizontal move
G1 X40.1 Y57.5 E555.6 F973.9 ;horizontal move
G1 Y58.3 E556.4 F1636.0 ;horizontal move
G1 X38.2 Y60.1 E559.0 F3000.0 ;horizontal move
G1 X35.7 Y62.7 E562.6 ;horizontal move
G1 X33.4 Y65.1 E565.9 F974.4 ;horizontal move
G1 X34.1 E566.6 F1636.3 ;horizontal move
G1 X36.0 Y63.3 E569.2 F3000.0 ;horizontal move
G1 X37.7 Y61.6 E571.6 ;horizontal move
G1 X40.1 Y59.2 E575.0 F975.1 ;horizontal move
G1 Y59.9 E575.7 F1636.7 ;horizontal move
G1 X38.2 Y61.8 E578.4 F3000.0 ;horizontal move
G1 X37.4 Y62.7 E579.6 ;horizontal move
G1 X35.0 Y65.1 E583.0 F975.9 ;horizontal move
G1 X35.8 E583.8 F1637.2 ;horizontal move
G1 X37.7 Y63.3 E586.4 F3000.0 ;horizontal move
G1 X40.1 Y61.0 E589.8 F981.1 ;horizontal move
G1 Y61.6 E590.4 F1595.8 ;horizontal move
G1 X38.7 Y63.1 E592.4 F2740.9 ;horizontal move
G1 X36.8 Y65.1 E595.2 F983.9 ;horizontal move
G1 X37.4 E595.8 F1597.5 ;horizontal move
G1 X38.5 Y64.1 E597.3 F2468.8 ;horizontal move
G1 X40.1 Y62.6 E599.5 F988.7 ;horizontal move
G1 Y63.4 E600.3 F1644.9 ;horizontal move
G1 X39.5 Y64.0 E601.1 F2166.7 ;horizontal move
G1 X38.5 Y65.1 E602.6 F988.9 ;horizontal move
G1 X39.2 E603.3 F1645.0 ;horizontal move
G1 X39.6 Y64.8 E603.8 F1976.7 ;horizontal move
G1 X40.1 Y64.3 E604.5 F1500.0 ;horizontal move
G1 F18000.0; feed for start of next move
G1 E564.5; extruder retraction
G1 F1500.0; feed for start of next move
G1 X38.1 Y62.3 F3000.0 ;horizontal move
G1 X33.0 Y57.5 ;horizontal move
G1 X31.0 Y55.5 F1500.0 ;horizontal move
G1 F18000.0; feed for start of next move
G1 E604.5; extruder dwell
G1 F1500.0; feed for start of next move
G1 F3000.0; feed for start of next move
G1 E609.5; extruder dwell
G1 F1500.0; feed for start of next move
G1 F3000.0; feed for start of next move
G1 E614.5; extruder dwell
G1 F1500.0; feed for start of next move
G1 X33.0 Y53.5 E617.3 F3000.0 ;horizontal move
G1 X38.2 Y48.2 E624.8 ;horizontal move
G1 X40.1 Y46.4 E627.4 F1636.7 ;horizontal move
G1 Y45.7 E628.1 F975.1 ;horizontal move
G1 X37.7 Y48.0 E631.4 F3000.0 ;horizontal move
G1 X36.5 Y49.2 E633.1 ;horizontal move
G1 X34.1 Y51.5 E636.4 F935.5 ;horizontal move
G1 Y50.8 E637.1 F1659.1 ;horizontal move
G1 X36.0 Y48.9 E639.8 F3000.0 ;horizontal move
G1 X38.2 Y46.6 E643.0 ;horizontal move
G1 X40.1 Y44.6 E645.7 F1592.0 ;horizontal move
G1 Y44.0 E646.3 F974.9 ;horizontal move
G1 X37.7 Y46.3 E649.7 F3000.0 ;horizontal move
G1 X36.2 Y47.8 E651.8 ;horizontal move
G1 X34.0 Y50.0 E654.9 F1269.9 ;horizontal move
G1 X33.7 Y49.5 E655.5 F1703.1 ;horizontal move
G1 X35.5 Y47.7 E658.0 F3000.0 ;horizontal move
G1 X38.2 Y44.8 E662.0 ;horizontal move
G1 X40.1 Y43.0 E664.6 F1636.3 ;horizontal move
G1 Y42.2 E665.4 F974.4 ;horizontal move
G1 X37.7 Y44.6 E668.8 F3000.0 ;horizontal move
G1 X35.3 Y46.9 E672.1 ;horizontal move
G1 X33.3 Y48.9 E675.0 F1500.0 ;horizontal move
G1 F18000.0; feed for start of next move
G1 E635.0; extruder retraction
G1 F1500.0; feed for start of next move
G1 X34.9 Y46.9 F2897.8 ;horizontal move
G1 X36.5 Y44.9 F1500.0 ;horizontal move
G1 F18000.0; feed for start of next move
G1 E675.0; extruder dwell
G1 F1500.0; feed for start of next move
G1 F3000.0; feed for start of next move
G1 E680.0; extruder dwell
G1 F1500.0; feed for start of next move
G1 F3000.0; feed for start of next move
G1 E685.0; extruder dwell
G1 F1500.0; feed for start of next move
G1 X38.4 Y43.0 E687.6 F2932.3 ;horizontal move
G1 X40.1 Y41.3 E690.0 F1636.0 ;horizontal move
G1 Y40.6 E690.7 F973.8 ;horizontal move
G1 X37.7 Y42.9 E694.1 F3000.0 ;horizontal move
G1 X34.2 Y46.3 E699.0 ;horizontal move
G1 X32.3 Y48.2 E701.6 F1653.4 ;horizontal move
G1 X31.8 Y48.0 E702.2 F1169.4 ;horizontal move
G1 X34.0 Y45.7 E705.4 F3000.0 ;horizontal move
G1 X38.2 Y41.5 E711.3 ;horizontal move
G1 X40.1 Y39.6 E714.0 F1636.6 ;horizontal move
G1 Y38.9 E714.7 F975.0 ;horizontal move
G1 X37.7 Y41.2 E718.0 F3000.0 ;horizontal move
G1 X32.8 Y46.0 E724.9 ;horizontal move
G1 X31.0 Y47.8 E727.4 F1681.0 ;horizontal move
G1 X30.1 Y48.0 E728.3 F874.0 ;horizontal move
G1 X32.5 Y45.6 E731.7 F3000.0 ;horizontal move
G1 X38.2 Y39.8 E739.9 ;horizontal move
G1 X40.1 Y37.9 E742.5 F1590.4 ;horizontal move
G1 Y37.2 E743.2 F972.3 ;horizontal move
G1 X37.7 Y39.6 E746.6 F3000.0 ;horizontal move
G1 X24.3 Y52.8 E765.5 ;horizontal move
G1 X22.0 Y55.1 E768.7 F972.3 ;horizontal move
G1 Y54.4 E769.4 F1635.1 ;horizontal move
G1 X23.8 Y52.5 E772.0 F3000.0 ;horizontal move
G1 X36.9 Y39.3 E790.6 ;horizontal move
G1 X39.3 Y37.0 E793.9 F971.5 ;horizontal move
G1 X38.6 E794.6 F1634.6 ;horizontal move
G1 X36.7 Y38.8 E797.3 F3000.0 ;horizontal move
G1 X24.3 Y51.1 E814.7 ;horizontal move
G1 X22.0 Y53.5 E818.1 F971.6 ;horizontal move
G1 Y52.7 E818.9 F1634.6 ;horizontal move
G1 X23.8 Y50.9 E821.4 F3000.0 ;horizontal move
G1 X35.3 Y39.3 E837.7 ;horizontal move
G1 X37.6 Y37.0 E841.0 F971.7 ;horizontal move
G1 X36.9 E841.7 F1634.7 ;horizontal move
G1 X35.0 Y38.8 E844.3 F3000.0 ;horizontal move
G1 X24.3 Y49.5 E859.4 ;horizontal move
G1 X21.9 Y51.8 E862.8 F971.8 ;horizontal move
G1 Y51.1 E863.5 F1634.7 ;horizontal move
G1 X23.8 Y49.2 E866.1 F3000.0 ;horizontal move
G1 X33.5 Y39.3 E880.0 ;horizontal move
G1 X35.9 Y37.0 E883.3 F973.1 ;horizontal move
G1 X35.2 E884.0 F1590.9 ;horizontal move
G1 X33.3 Y38.9 E886.7 F3000.0 ;horizontal move
G1 X24.3 Y47.7 E899.3 ;horizontal move
G1 X21.9 Y50.1 E902.7 F973.3 ;horizontal move
G1 Y49.4 E903.4 F1591.0 ;horizontal move
G1 X23.8 Y47.5 E906.1 F3000.0 ;horizontal move
G1 X31.8 Y39.3 E917.5 ;horizontal move
G1 X34.2 Y37.0 E920.9 F973.5 ;horizontal move
G1 X33.5 E921.6 F1591.2 ;horizontal move
G1 X31.6 Y38.9 E924.3 F3000.0 ;horizontal move
G1 X24.3 Y46.1 E934.5 ;horizontal move
G1 X21.9 Y48.4 E937.8 F973.8 ;horizontal move
G1 Y47.7 E938.5 F1635.9 ;horizontal move
G1 X23.8 Y45.8 E941.2 F3000.0 ;horizontal move
G1 X30.2 Y39.3 E950.3 ;horizontal move
G1 X32.5 Y37.0 E953.6 F972.7 ;horizontal move
G1 X31.8 E954.3 F1635.3 ;horizontal move
G1 X29.9 Y38.8 E956.9 F3000.0 ;horizontal move
G1 X24.3 Y44.4 E964.8 ;horizontal move
G1 X21.9 Y46.7 E968.2 F972.9 ;horizontal move
G1 Y46.0 E968.9 F1635.4 ;horizontal move
G1 X23.8 Y44.2 E971.5 F3000.0 ;horizontal move
G1 X29.0 Y38.9 E978.9 ;horizontal move
G1 X31.0 Y36.9 E981.7 F1500.0 ;horizontal move
G1 F18000.0; feed for start of next move
G1 E941.7; extruder retraction
G1 F1500.0; feed for start of next move
G1 X30.6 F1824.8 ;horizontal move
G1 X30.1 F1500.0 ;horizontal move
G1 F18000.0; feed for start of next move
G1 E981.7; extruder dwell
G1 F1500.0; feed for start of next move
G1 F3000.0; feed for start of next move
G1 E986.7; extruder dwell
G1 F1500.0; feed for start of next move
G1 F3000.0; feed for start of next move
G1 E991.7; extruder dwell
G1 F1500.0; feed for start of next move
G1 X28.1 Y38.9 E994.6 F3000.0 ;horizontal move
G1 X24.3 Y42.6 E999.9 ;horizontal move
G1 X21.9 Y45.0 E1003.2 F973.6 ;horizontal move
G1 Y44.3 E1003.9 F1591.2 ;horizontal move
G1 X23.8 Y42.4 E1006.6 F3000.0 ;horizontal move
G1 X26.8 Y39.3 E1010.9 ;horizontal move
G1 X29.2 Y36.9 E1014.3 F976.2 ;horizontal move
G1 X28.5 E1015.0 F1592.8 ;horizontal move
G1 X26.6 Y38.8 E1017.7 F3000.0 ;horizontal move
G1 X24.3 Y41.0 E1020.9 ;horizontal move
G1 X21.9 Y43.3 E1024.2 F977.1 ;horizontal move
G1 Y42.7 E1024.8 F1593.3 ;horizontal move
G1 X23.8 Y40.7 E1027.6 F3000.0 ;horizontal move
G1 X25.1 Y39.3 E1029.5 ;horizontal move
G1 X27.5 Y36.9 E1032.9 F978.2 ;horizontal move
G1 X26.8 E1033.6 F1638.5 ;horizontal move
G1 X24.9 Y38.7 E1036.2 F3000.0 ;horizontal move
G1 X24.3 Y39.3 E1037.1 ;horizontal move
G1 X21.9 Y41.6 E1040.4 F976.3 ;horizontal move
G1 Y40.9 E1041.1 F1637.4 ;horizontal move
G1 X23.6 Y39.2 E1043.5 F2922.3 ;horizontal move
G1 X25.8 Y36.9 E1046.7 F977.8 ;horizontal move
G1 X25.1 E1047.4 F1638.3 ;horizontal move
G1 X23.7 Y38.2 E1049.3 F2668.0 ;horizontal move
G1 X21.9 Y40.0 E1051.8 F980.0 ;horizontal move
G1 Y39.2 E1052.6 F1639.6 ;horizontal move
G1 X22.7 Y38.3 E1053.8 F2378.4 ;horizontal move
G1 X24.1 Y36.9 E1055.8 F991.3 ;horizontal move
G1 X23.4 E1056.5 F1602.1 ;horizontal move
G1 X22.9 Y37.4 E1057.2 F2054.6 ;horizontal move
G1 X21.9 Y38.3 E1058.6 F992.2 ;horizontal move
G1 Y37.6 E1059.3 F1647.0 ;horizontal move
G1 X22.1 Y37.3 E1059.6 F1884.6 ;horizontal move
G1 X22.5 Y36.9 E1060.2 F1500.0 ;horizontal move
G1 F18000.0; feed for start of next move
G1 E1020.2; extruder retraction
G1 F1500.0; feed for start of next move
G1 X23.6 Y39.5 F3000.0 ;horizontal move
G1 X27.0 Y47.4 ;horizontal move
G1 X28.1 Y50.0 F1500.0 ;horizontal move
G1 F18000.0; feed for start of next move
G1 E1060.2; extruder dwell
G1 F1500.0; feed for start of next move
G1 F3000.0; feed for start of next move
G1 E1065.2; extruder dwell
G1 F1500.0; feed for start of next move
G1 F3000.0; feed for start of next move
G1 E1070.2; extruder dwell
G1 F1500.0; feed for start of next move
G1 X26.1 Y52.0 E1073.0 F3000.0 ;horizontal move
G1 X23.9 Y54.2 E1076.1 ;horizontal move
G1 X22.0 Y56.2 E1078.9 F1593.9 ;horizontal move
G1 Y56.8 E1079.5 F978.0 ;horizontal move
G1 X24.4 Y54.5 E1082.8 F3000.0 ;horizontal move
G1 X25.5 Y53.4 E1084.4 ;horizontal move
G1 X27.8 Y51.1 E1087.6 F1093.7 ;horizontal move
G1 X28.0 Y51.7 E1088.3 F1632.4 ;horizontal move
G1 X26.1 Y53.6 E1090.9 F3000.0 ;horizontal move
G1 X23.8 Y56.0 E1094.3 ;horizontal move
G1 X22.0 Y57.8 E1096.8 F1636.6 ;horizontal move
G1 Y58.6 E1097.6 F974.8 ;horizontal move
G1 X24.4 Y56.2 E1101.0 F3000.0 ;horizontal move
G1 X26.1 Y54.5 E1103.4 ;horizontal move
G1 X28.2 Y52.4 E1106.4 F1383.9 ;horizontal move
G1 X28.5 Y52.9 E1107.0 F1768.0 ;horizontal move
G1 X26.8 Y54.6 E1109.4 F3000.0 ;horizontal move
G1 X23.8 Y57.6 E1113.6 ;horizontal move
G1 X22.0 Y59.5 E1116.2 F1636.2 ;horizontal move
G1 Y60.2 E1116.9 F974.3 ;horizontal move
G1 X24.4 Y57.9 E1120.3 F3000.0 ;horizontal move
G1 X27.2 Y55.1 E1124.2 ;horizontal move
G1 X29.0 Y53.3 E1126.8 F1759.3 ;horizontal move
G1 X29.4 Y53.6 E1127.3 F1385.6 ;horizontal move
G1 X27.3 Y55.8 E1130.3 F3000.0 ;horizontal move
G1 X23.8 Y59.3 E1135.3 ;horizontal move
G1 X22.0 Y61.3 E1137.9 F1592.5 ;horizontal move
G1 Y61.9 E1138.5 F975.7 ;horizontal move
G1 X24.4 Y59.6 E1141.9 F3000.0 ;horizontal move
G1 X28.1 Y55.9 E1147.1 ;horizontal move
G1 X30.1 Y54.0 E1149.9 F1595.7 ;horizontal move
G1 X30.6 Y54.1 E1150.4 F1103.9 ;horizontal move
G1 X28.3 Y56.4 E1153.6 F3000.0 ;horizontal move
G1 X23.8 Y61.1 E1160.1 ;horizontal move
G1 X22.0 Y62.9 E1162.7 F1635.4 ;horizontal move
G1 Y63.7 E1163.5 F973.0 ;horizontal move
G1 X24.3 Y61.3 E1166.8 F3000.0 ;horizontal move
G1 X29.7 Y56.0 E1174.4 ;horizontal move
G1 X31.7 Y54.1 E1177.1 F1500.0 ;horizontal move
G1 F18000.0; feed for start of next move
G1 E1137.1; extruder retraction
G1 F1500.0; feed for start of next move
G1 X34.5 Y54.2 F3000.0 ;horizontal move
G1 X55.2 Y55.4 ;horizontal move
G1 X58.0 Y55.5 F1500.0 ;horizontal move
G1 F18000.0; feed for start of next move
G1 E1177.1; extruder dwell
G1 F1500.0; feed for start of next move
G1 F3000.0; feed for start of next move
G1 E1182.1; extruder dwell
G1 F1500.0; feed for start of next move
G1 F3000.0; feed for start of next move
G1 E1187.1; extruder dwell
G1 F1500.0; feed for start of next move
G1 X56.5 Y57.0 E1189.2 F2700.0 ;horizontal move
G1 X50.1 Y63.5 E1198.4 ;horizontal move
G1 X48.9 Y64.7 E1200.1 F1826.6 ;horizontal move
G1 Y65.0 E1200.4 F1617.6 ;horizontal move
G1 X48.4 Y65.5 E1201.1 F939.4 ;horizontal move
G1 Y62.9 E1203.7 F2700.0 ;horizontal move
G1 Y38.5 E1228.1 ;horizontal move
G1 Y36.4 E1230.2 F1497.6 ;horizontal move
G1 X50.5 E1232.3 F2700.0 ;horizontal move
G1 X65.5 Y36.5 E1247.3 ;horizontal move
G1 X67.6 E1249.4 F1503.8 ;horizontal move
G1 Y38.6 E1251.5 F2700.0 ;horizontal move
G1 Y63.5 E1276.4 ;horizontal move
G1 Y65.6 E1278.5 F1497.6 ;horizontal move
G1 X65.5 E1280.6 F2700.0 ;horizontal move
G1 X51.1 Y65.5 E1295.0 ;horizontal move
G1 X48.4 E1297.7 F982.9 ;horizontal move
G1 X50.2 Y63.6 E1300.3 F2700.0 ;horizontal move
G1 X56.5 Y57.0 E1309.4 ;horizontal move
G1 F18000.0; feed for start of next move
G1 E1269.4; extruder retraction
G1 F1500.0; feed for start of next move
G1 X58.0 Y55.5 F3000.0 ;horizontal move
G1 F1500.0; feed for start of next move
G1 X59.3 Y53.0 F3000.0 ;horizontal move
G1 X62.2 Y47.4 ;horizontal move
G1 X63.5 Y44.9 F1500.0 ;horizontal move
G1 F18000.0; feed for start of next move
G1 E1309.4; extruder dwell
G1 F1500.0; feed for start of next move
G1 F3000.0; feed for start of next move
G1 E1314.4; extruder dwell
G1 F1500.0; feed for start of next move
G1 F3000.0; feed for start of next move
G1 E1319.4; extruder dwell
G1 F1500.0; feed for start of next move
G1 X62.0 Y46.4 E1321.5 F2700.0 ;horizontal move
G1 X61.5 Y47.0 E1322.3 ;horizontal move
G1 X59.9 Y48.6 E1324.6 F1441.4 ;horizontal move
G1 X60.3 Y48.9 E1325.1 F1782.2 ;horizontal move
G1 X60.1 Y49.4 E1325.6 F2106.7 ;horizontal move
G1 X60.5 Y50.0 E1326.3 F2513.1 ;horizontal move
G1 Y50.4 E1326.7 F2700.0 ;horizontal move
G1 X60.6 Y50.9 E1327.2 ;horizontal move
G1 Y51.0 E1327.3 F2672.4 ;horizontal move
G1 Y51.1 E1327.4 F2700.0 ;horizontal move
G1 Y51.5 E1327.8 ;horizontal move
G1 X60.5 Y51.7 E1328.1 F2607.0 ;horizontal move
G1 X60.4 Y51.8 E1328.2 F2700.0 ;horizontal move
G1 X60.1 Y52.6 E1329.1 ;horizontal move
G1 X60.0 Y52.7 E1329.2 F2646.9 ;horizontal move
G1 X59.9 Y52.8 E1329.3 F2700.0 ;horizontal move
G1 X59.7 Y53.0 E1329.6 ;horizontal move
G1 X59.6 Y53.1 E1329.8 F2649.4 ;horizontal move
G1 X59.5 Y53.2 E1329.9 F2700.0 ;horizontal move
G1 X58.9 Y53.5 E1330.6 ;horizontal move
G1 X58.8 E1330.7 F2643.3 ;horizontal move
G1 X58.7 E1330.8 F2700.0 ;horizontal move
G1 X58.3 Y53.6 E1331.2 ;horizontal move
G1 X57.8 Y53.7 E1331.7 F2490.5 ;horizontal move
G1 X57.4 Y53.5 E1332.2 F2700.0 ;horizontal move
G1 X56.6 Y53.1 E1333.0 ;horizontal move
G1 X56.3 Y53.0 E1333.4 F2581.8 ;horizontal move
G1 X56.2 Y52.8 E1333.6 F2700.0 ;horizontal move
G1 X55.8 Y52.4 E1334.2 ;horizontal move
G1 X55.6 Y52.2 E1334.4 F2556.2 ;horizontal move
G1 Y51.9 E1334.7 F2700.0 ;horizontal move
G1 X55.4 Y51.2 E1335.5 ;horizontal move
G1 X55.3 Y50.8 E1335.9 F2531.8 ;horizontal move
G1 X55.4 Y50.5 E1336.2 F2700.0 ;horizontal move
G1 X55.6 Y49.9 E1336.8 ;horizontal move
G1 X55.7 Y49.7 E1337.1 F2611.3 ;horizontal move
G1 X55.8 Y49.6 E1337.2 F2700.0 ;horizontal move
G1 X56.3 Y49.0 E1338.0 ;horizontal move
G1 X56.4 Y48.9 E1338.1 F2619.6 ;horizontal move
G1 X56.6 Y48.8 E1338.3 F2700.0 ;horizontal move
G1 X57.1 Y48.5 E1338.9 ;horizontal move
G1 X57.2 E1339.0 F2647.6 ;horizontal move
G1 X57.3 E1339.1 F2700.0 ;horizontal move
G1 X57.8 Y48.4 E1339.6 ;horizontal move
G1 X58.1 Y48.3 E1339.9 F2562.5 ;horizontal move
G1 X58.3 Y48.4 E1340.2 F2672.8 ;horizontal move
G1 X59.1 Y48.6 E1341.0 F2273.8 ;horizontal move
G1 X60.1 Y49.4 E1342.3 F1483.7 ;horizontal move
G1 X61.4 Y47.7 E1344.4 F2700.0 ;horizontal move
G1 X62.2 Y46.6 E1345.8 ;horizontal move
G1 F18000.0; feed for start of next move
G1 E1305.8; extruder retraction
G1 F1500.0; feed for start of next move
G1 X63.5 Y44.9 F3000.0 ;horizontal move
G1 F1500.0; feed for start of next move
G1 X61.9 Y46.9 F2897.8 ;horizontal move
G1 X60.3 Y48.9 F1500.0 ;horizontal move
G1 F18000.0; feed for start of next move
G1 E1345.8; extruder dwell
G1 F1500.0; feed for start of next move
G1 F3000.0; feed for start of next move
G1 E1350.8; extruder dwell
G1 F1500.0; feed for start of next move
G1 F3000.0; feed for start of next move
G1 E1355.8; extruder dwell
G1 F1500.0; feed for start of next move
G1 X62.3 Y46.9 E1358.6 F3000.0 ;horizontal move
G1 X64.7 Y44.6 E1361.9 ;horizontal move
G1 X67.1 Y42.2 E1365.3 F974.4 ;horizontal move
G1 Y43.0 E1366.1 F1636.3 ;horizontal move
G1 X65.2 Y44.8 E1368.7 F3000.0 ;horizontal move
G1 X62.5 Y47.7 E1372.7 ;horizontal move
G1 X60.7 Y49.5 E1375.2 F1703.1 ;horizontal move
G1 X61.0 Y50.0 E1375.8 F1269.9 ;horizontal move
G1 X63.2 Y47.8 E1378.9 F3000.0 ;horizontal move
G1 X64.7 Y46.3 E1381.1 ;horizontal move
G1 X67.1 Y44.0 E1384.4 F974.9 ;horizontal move
G1 Y44.6 E1385.0 F1592.0 ;horizontal move
G1 X65.2 Y46.6 E1387.7 F3000.0 ;horizontal move
G1 X63.0 Y48.9 E1390.9 ;horizontal move
G1 X61.1 Y50.8 E1393.6 F1659.1 ;horizontal move
G1 Y51.5 E1394.3 F935.5 ;horizontal move
G1 X63.5 Y49.2 E1397.6 F3000.0 ;horizontal move
G1 X64.7 Y48.0 E1399.3 ;horizontal move
G1 X67.1 Y45.7 E1402.7 F975.1 ;horizontal move
G1 Y46.4 E1403.4 F1636.7 ;horizontal move
G1 X65.2 Y48.2 E1406.0 F3000.0 ;horizontal move
G1 X60.0 Y53.5 E1413.4 ;horizontal move
G1 X58.0 Y55.5 E1416.2 F1500.0 ;horizontal move
G1 F18000.0; feed for start of next move
G1 E1376.2; extruder retraction
G1 F1500.0; feed for start of next move
G1 X58.4 Y54.8 F2031.8 ;horizontal move
G1 X58.7 Y54.1 F1500.0 ;horizontal move
G1 F18000.0; feed for start of next move
G1 E1416.2; extruder dwell
